; generated by SuperSlicer 2.4 on 2023-06-03 at 23:56:13 UTC

; 

; external perimeters extrusion width = 0.42mm
; perimeters extrusion width = 0.45mm
; infill extrusion width = 0.45mm
; solid infill extrusion width = 0.45mm
; top infill extrusion width = 0.42mm
; support material extrusion width = 0.42mm
; first layer extrusion width = 0.60mm

; external perimeters extrusion width = 0.42mm
; perimeters extrusion width = 0.45mm
; infill extrusion width = 0.45mm
; solid infill extrusion width = 0.45mm
; top infill extrusion width = 0.42mm
; support material extrusion width = 0.42mm
; first layer extrusion width = 0.60mm


M140 S70 ; set bed temperature
M104 S260 ; set temperature
;TYPE:Custom
G28 ; home all axes
G1 Z5 F5000 ; lift nozzle
M107
G21 ; set units to millimeters
G90 ; use absolute coordinates
M82 ; use absolute distances for extrusion
G92 E0
; Filament gcode
;_TOOLCHANGE 0
M109 S260 ; set temperature and wait for it to be reached
M190 S70 ; set bed temperature and wait for it to be reached
M107
;LAYER_CHANGE
;Z:0.2
;HEIGHT:0.2
G1 Z0.2 F18000
G1 X122.259 Y200.125
;TYPE:Skirt
;WIDTH:0.52
G1 F4200
G1 X120.351 Y201.441 E0.09195
G1 X116.519 Y204.988 E0.2991
G1 X115.059 Y206.787 E0.391
G1 X114.532 Y207.669 E0.43173
G1 X113.64 Y209.801 E0.52345
G1 X112.327 Y214.857 E0.73064
G1 X112.07 Y217.168 E0.8229
G1 X112.103 Y218.194 E0.86362
G1 X112.508 Y220.48 E0.95571
G1 X114.143 Y225.442 E1.16298
G1 X115.175 Y227.52 E1.255
G1 X115.759 Y228.365 E1.29575
G1 X117.333 Y230.066 E1.38769
G1 X121.39 Y233.356 E1.59491
G1 X123.383 Y234.546 E1.687
G1 X124.333 Y234.943 E1.72781
G1 X126.576 Y235.522 E1.81971
G1 X131.767 Y236.096 E2.0269
G1 X134.081 Y236.02 E2.11875
G1 X135.094 Y235.841 E2.15953
G1 X137.298 Y235.115 E2.25159
G1 X141.976 Y232.792 E2.4588
G1 X143.996 Y231.397 E2.55619
G1 X144.995 Y230.428 E2.6114
G1 X146.101 Y228.975 E2.6838
G1 X148.779 Y224.492 E2.891
G1 X149.726 Y222.218 E2.98871
G1 X150.038 Y220.883 E3.04308
G1 X150.186 Y219.05 E3.11604
G1 X150.014 Y213.83 E3.32322
G1 X149.585 Y211.416 E3.4205
G1 X149.123 Y210.113 E3.47535
G1 X148.252 Y208.487 E3.54852
G1 X145.279 Y204.19 E3.75577
G1 X144.153 Y202.883 E3.82423
G1 X142.966 Y201.868 E3.88618
G1 X140.922 Y200.66 E3.98035
G1 X136.104 Y198.648 E4.18747
G1 X134.44 Y198.154 E4.25633
G1 X132.899 Y197.943 E4.31804
G1 X130.521 Y198.031 E4.41242
G1 X125.381 Y198.942 E4.61951
G1 X123.179 Y199.668 E4.71151
G1 X122.313 Y200.098 E4.74986
G1 X122.525 Y200.526 F18000
G1 F4200
G1 X122.471 Y200.552 E4.75224
G1 X120.675 Y201.792 E4.8388
G1 X116.843 Y205.338 E5.04595
G1 X115.469 Y207.032 E5.13247
G1 X114.942 Y207.913 E5.17321
G1 X114.101 Y209.921 E5.25955
G1 X112.789 Y214.977 E5.46674
G1 X112.546 Y217.153 E5.55359
G1 X112.58 Y218.179 E5.59432
G1 X112.961 Y220.331 E5.68102
G1 X114.596 Y225.293 E5.88828
G1 X115.568 Y227.249 E5.97491
G1 X116.151 Y228.094 E6.01566
G1 X117.633 Y229.696 E6.10223
G1 X121.691 Y232.986 E6.30944
G1 X123.567 Y234.106 E6.39614
G1 X124.516 Y234.502 E6.43695
G1 X126.628 Y235.048 E6.52347
G1 X131.82 Y235.621 E6.73066
G1 X133.998 Y235.55 E6.81713
G1 X135.01 Y235.371 E6.85791
G1 X137.086 Y234.688 E6.94458
G1 X141.764 Y232.365 E7.15178
G1 X143.691 Y231.031 E7.24476
G1 X144.65 Y230.098 E7.29783
G1 X145.691 Y228.731 E7.366
G1 X148.37 Y224.247 E7.57319
G1 X149.271 Y222.075 E7.66648
G1 X149.57 Y220.792 E7.71875
G1 X149.709 Y219.065 E7.78745
G1 X149.538 Y213.846 E7.99463
G1 X149.125 Y211.541 E8.0875
G1 X148.679 Y210.289 E8.14023
G1 X147.859 Y208.758 E8.20912
G1 X144.887 Y204.461 E8.41637
G1 X143.826 Y203.231 E8.48082
G1 X142.688 Y202.257 E8.54024
G1 X140.738 Y201.101 E8.63018
G1 X135.92 Y199.089 E8.8373
G1 X134.354 Y198.623 E8.90212
G1 X132.875 Y198.419 E8.96133
G1 X130.605 Y198.5 E9.05146
G1 X125.464 Y199.412 E9.25855
G1 X123.391 Y200.096 E9.34516
G1 X122.579 Y200.499 E9.38113
G1 X122.791 Y200.926 F18000
G1 F4200
G1 X122.684 Y200.98 E9.38589
G1 X120.999 Y202.142 E9.46707
G1 X117.167 Y205.688 E9.67422
G1 X115.878 Y207.277 E9.75536
G1 X115.351 Y208.158 E9.79609
G1 X114.563 Y210.041 E9.87706
G1 X113.25 Y215.096 E10.08426
G1 X113.023 Y217.137 E10.16571
G1 X113.056 Y218.163 E10.20643
G1 X113.414 Y220.181 E10.28774
G1 X115.049 Y225.144 E10.495
G1 X115.96 Y226.978 E10.57624
G1 X116.544 Y227.823 E10.617
G1 X117.934 Y229.325 E10.69817
G1 X121.991 Y232.615 E10.90539
G1 X123.751 Y233.666 E10.9867
G1 X124.7 Y234.062 E11.0275
G1 X126.681 Y234.574 E11.10864
G1 X131.872 Y235.147 E11.31583
G1 X133.915 Y235.081 E11.39692
G1 X134.927 Y234.902 E11.4377
G1 X136.873 Y234.261 E11.51898
G1 X141.552 Y231.938 E11.72619
G1 X143.385 Y230.664 E11.81474
G1 X144.305 Y229.768 E11.86569
G1 X145.281 Y228.486 E11.92961
G1 X147.96 Y224.002 E12.13681
G1 X148.816 Y221.932 E12.22566
G1 X149.102 Y220.7 E12.27585
G1 X149.232 Y219.081 E12.34027
G1 X149.061 Y213.861 E12.54745
G1 X148.665 Y211.666 E12.63593
G1 X148.236 Y210.465 E12.68653
G1 X147.467 Y209.029 E12.75113
G1 X144.495 Y204.733 E12.95838
G1 X143.5 Y203.579 E13.01882
G1 X142.411 Y202.645 E13.07573
G1 X140.554 Y201.541 E13.16142
G1 X135.736 Y199.529 E13.36855
G1 X134.267 Y199.092 E13.42934
G1 X132.852 Y198.896 E13.48604
G1 X130.688 Y198.97 E13.57192
G1 X125.548 Y199.882 E13.77901
G1 X123.603 Y200.523 E13.86023
G1 X122.845 Y200.9 E13.89382
G1 X123.057 Y201.327 F18000
G1 F4200
G1 X122.896 Y201.407 E13.90096
G1 X121.323 Y202.492 E13.97676
G1 X117.491 Y206.039 E14.18391
G1 X116.288 Y207.522 E14.25966
G1 X115.761 Y208.403 E14.3004
G1 X115.025 Y210.161 E14.376
G1 X113.712 Y215.216 E14.58319
G1 X113.5 Y217.122 E14.65924
G1 X113.533 Y218.148 E14.69997
G1 X113.867 Y220.032 E14.77588
G1 X115.502 Y224.994 E14.98314
G1 X116.353 Y226.707 E15.05899
G1 X116.937 Y227.552 E15.09975
G1 X118.234 Y228.955 E15.17554
G1 X122.292 Y232.244 E15.38275
G1 X123.935 Y233.226 E15.45867
G1 X124.884 Y233.622 E15.49947
G1 X126.733 Y234.099 E15.57523
G1 X131.924 Y234.673 E15.78242
G1 X133.832 Y234.611 E15.85813
G1 X134.844 Y234.432 E15.89891
G1 X136.661 Y233.834 E15.9748
G1 X141.34 Y231.51 E16.18201
G1 X143.08 Y230.298 E16.26614
G1 X143.96 Y229.438 E16.31496
G1 X144.872 Y228.241 E16.37464
G1 X147.551 Y223.758 E16.58184
G1 X148.361 Y221.789 E16.66626
G1 X148.634 Y220.608 E16.71436
G1 X148.755 Y219.097 E16.77451
G1 X148.584 Y213.877 E16.9817
G1 X148.204 Y211.792 E17.06577
G1 X147.792 Y210.641 E17.11425
G1 X147.075 Y209.301 E17.17456
G1 X144.102 Y205.004 E17.38181
G1 X143.174 Y203.927 E17.43825
G1 X142.134 Y203.033 E17.49263
G1 X140.37 Y201.981 E17.57409
G1 X135.552 Y199.969 E17.78121
G1 X134.181 Y199.562 E17.83797
G1 X132.828 Y199.372 E17.89216
G1 X130.771 Y199.44 E17.97379
G1 X125.631 Y200.352 E18.18089
G1 X123.815 Y200.95 E18.25672
G1 X123.111 Y201.3 E18.28793
G1 X123.323 Y201.727 F18000
G1 F4200
G1 X123.108 Y201.834 E18.29745
G1 X121.647 Y202.842 E18.36786
G1 X117.815 Y206.389 E18.57501
G1 X116.697 Y207.767 E18.64539
G1 X116.17 Y208.648 E18.68612
G1 X115.487 Y210.281 E18.75635
G1 X114.174 Y215.336 E18.96354
G1 X113.977 Y217.106 E19.03419
G1 X114.01 Y218.132 E19.07491
G1 X114.32 Y219.883 E19.14544
G1 X115.955 Y224.845 E19.3527
G1 X116.746 Y226.436 E19.42316
G1 X117.329 Y227.281 E19.46392
G1 X118.535 Y228.584 E19.53432
G1 X122.592 Y231.874 E19.74154
G1 X124.118 Y232.785 E19.81206
G1 X125.068 Y233.182 E19.85287
G1 X126.785 Y233.625 E19.92324
G1 X131.977 Y234.199 E20.13043
G1 X133.749 Y234.141 E20.20077
G1 X134.761 Y233.962 E20.24154
G1 X136.449 Y233.406 E20.31204
G1 X141.127 Y231.083 E20.51925
G1 X142.774 Y229.931 E20.59897
G1 X143.616 Y229.109 E20.64565
G1 X144.462 Y227.997 E20.70109
G1 X147.141 Y223.513 E20.90829
G1 X147.905 Y221.647 E20.98828
G1 X148.166 Y220.516 E21.0343
G1 X148.279 Y219.112 E21.09017
G1 X148.107 Y213.892 E21.29736
G1 X147.744 Y211.917 E21.37703
G1 X147.349 Y210.817 E21.42338
G1 X146.682 Y209.572 E21.47942
G1 X143.71 Y205.276 E21.68666
G1 X142.847 Y204.275 E21.73909
G1 X141.857 Y203.422 E21.79095
G1 X140.187 Y202.421 E21.86817
G1 X135.369 Y200.409 E22.0753
G1 X134.095 Y200.031 E22.12802
G1 X132.804 Y199.849 E22.17971
G1 X130.855 Y199.91 E22.25709
G1 X125.714 Y200.821 E22.46418
G1 X124.028 Y201.377 E22.53463
G1 X123.377 Y201.701 E22.56346
G92 E0
G1 X129.379 Y213.612 F18000
;TYPE:Internal perimeter
;WIDTH:0.6
G1 F4200
G1 X129.534 Y213.657 E0.00752
G1 X129.8 Y213.58 E0.02031
G1 X129.946 Y213.965 E0.03941
G1 X129.606 Y214.125 E0.05679
G1 X129.197 Y214.393 E0.07944
G1 X128.623 Y214.957 E0.11673
G1 X128.212 Y215.601 E0.15212
G1 X128.116 Y215.884 E0.16594
G1 X127.706 Y215.765 E0.1857
G1 X127.769 Y215.507 E0.19798
G1 X127.574 Y214.934 E0.22603
G1 X127.321 Y214.553 E0.24723
G1 X126.989 Y214.246 E0.26816
G1 X126.592 Y214.028 E0.28913
G1 X126.153 Y213.911 E0.31019
G1 X125.699 Y213.904 E0.33123
G1 X125.518 Y213.947 E0.33983
G1 X125.439 Y213.901 E0.34408
G1 X125.413 Y213.9 E0.34529
G1 X125.422 Y213.891 E0.34591
G1 X124.524 Y213.368 E0.39409
G1 X123.564 Y213.05 E0.44089
G1 X123.194 Y212.713 E0.46409
G1 X123.125 Y212.677 E0.4677
G1 X122.712 Y212.235 E0.49573
G1 X122.475 Y211.8 E0.51867
G1 X123.253 Y211.869 E0.55484
G1 X123.853 Y212.049 E0.58386
G1 X123.963 Y212.106 E0.58962
G1 X124.264 Y212.432 E0.61017
G1 X125.787 Y213.555 E0.6978
G1 X126.722 Y212.69 E0.75678
G1 X127.222 Y212.168 E0.79026
G1 X127.833 Y211.691 E0.82619
G1 X127.877 Y212.165 E0.84825
G1 X128.018 Y212.584 E0.86871
G1 X128.257 Y212.961 E0.88941
G1 X128.58 Y213.268 E0.91004
G1 X128.965 Y213.492 E0.93068
G1 X129.321 Y213.595 E0.94784
G92 E0
G1 X127.955 Y211.044 F18000
G1 F4200
G1 X127.584 Y210.321 E0.03766
G1 X126.951 Y209.536 E0.08438
G1 X126.821 Y209.05 E0.10769
G1 X126.781 Y208.981 E0.11136
G1 X126.674 Y208.388 E0.13929
G1 X126.71 Y207.893 E0.16229
G1 X127.326 Y208.372 E0.19845
G1 X127.734 Y208.848 E0.22751
G1 X127.795 Y208.955 E0.2332
G1 X127.871 Y209.391 E0.25373
G1 X128.31 Y210.54 E0.3107
G1 X127.989 Y210.995 E0.33647
G92 E0
G1 X133.192 Y213.062 F18000
G1 F4200
G1 X133.193 Y213.312 E0.01155
G1 X133.337 Y213.879 E0.03866
G1 X133.545 Y214.078 E0.05203
G1 X133.301 Y214.396 E0.07057
G1 X132.694 Y214.024 E0.10354
G1 X132.037 Y213.791 E0.13582
G1 X131.351 Y213.698 E0.1679
G1 X130.651 Y213.745 E0.20038
G1 X130.582 Y213.351 E0.21888
G1 X130.844 Y213.275 E0.23155
G1 X131.193 Y212.886 E0.25573
G1 X131.386 Y212.569 E0.27293
G1 X131.509 Y212.208 E0.29062
G1 X131.562 Y211.778 E0.31069
G1 X131.507 Y211.334 E0.33141
G1 X131.267 Y210.7 E0.36281
G1 X131.684 Y210.662 E0.38224
G1 X131.807 Y209.411 E0.44046
G1 X131.698 Y208.409 E0.48716
G1 X131.852 Y207.931 E0.5104
G1 X131.856 Y207.852 E0.51409
G1 X132.086 Y207.292 E0.54212
G1 X132.383 Y206.896 E0.56507
G1 X132.646 Y207.638 E0.60155
G1 X132.729 Y208.258 E0.63051
G1 X132.723 Y208.377 E0.63603
G1 X132.551 Y208.785 E0.65657
G1 X132.163 Y210.638 E0.74423
G1 X133.338 Y211.129 E0.80322
G1 X134.169 Y211.419 E0.84401
G1 X133.756 Y211.732 E0.86798
G1 X133.48 Y212.065 E0.88805
G1 X133.289 Y212.452 E0.90804
G1 X133.191 Y212.873 E0.92805
G1 X133.191 Y213.002 E0.93405
G92 E0
G1 X135.59 Y211.262 F18000
G1 F4200
G1 X135.852 Y210.93 E0.0196
G1 X136.302 Y210.027 E0.06632
G1 X136.69 Y209.709 E0.08955
G1 X136.736 Y209.644 E0.09325
G1 X137.231 Y209.298 E0.12123
G1 X137.696 Y209.125 E0.14422
G1 X137.517 Y209.887 E0.18045
G1 X137.254 Y210.454 E0.20945
G1 X137.182 Y210.554 E0.21514
G1 X136.817 Y210.805 E0.23566
G1 X136.087 Y211.545 E0.28381
G1 X135.642 Y211.292 E0.30754
G92 E0
G1 X135.78 Y216.69 F18000
G1 F4200
G1 X135.481 Y216.858 E0.01587
G1 X135.043 Y217.274 E0.04386
G1 X134.988 Y217.5 E0.05463
G1 X134.596 Y217.454 E0.0729
G1 X134.592 Y216.756 E0.10525
G1 X134.461 Y216.081 E0.13707
G1 X134.191 Y215.439 E0.16936
G1 X133.806 Y214.882 E0.20071
G1 X134.112 Y214.621 E0.21937
G1 X134.326 Y214.825 E0.23308
G1 X134.901 Y214.936 E0.26019
G1 X135.334 Y214.919 E0.28026
G1 X135.76 Y214.8 E0.30074
G1 X136.152 Y214.574 E0.3217
G1 X136.456 Y214.291 E0.34094
G1 X136.726 Y213.894 E0.36316
G1 X137.246 Y214.802 E0.41159
G1 X138.433 Y214.393 E0.46975
G1 X139.303 Y213.877 E0.51664
G1 X139.804 Y213.814 E0.54001
G1 X139.959 Y213.764 E0.54757
G1 X140.426 Y213.759 E0.56917
G1 X140.949 Y213.87 E0.59395
G1 X140.215 Y214.535 E0.63983
G1 X140.087 Y214.598 E0.64644
G1 X139.855 Y214.758 E0.6595
G1 X139.755 Y214.798 E0.66449
G1 X139.312 Y214.811 E0.68503
G1 X137.466 Y215.226 E0.77267
G1 X137.511 Y216.668 E0.83949
G1 X136.769 Y216.503 E0.8747
G1 X136.312 Y216.514 E0.89587
G1 X135.876 Y216.637 E0.91685
G1 X135.832 Y216.661 E0.91917
G92 E0
G1 X138.461 Y218.637 F18000
G1 F4200
G1 X138.734 Y218.704 E0.013
G1 X139.743 Y218.739 E0.05979
G1 X140.198 Y218.957 E0.08317
G1 X140.357 Y218.999 E0.09078
G1 X140.754 Y219.249 E0.11253
G1 X141.133 Y219.623 E0.13718
G1 X140.155 Y219.786 E0.18312
G1 X140.014 Y219.769 E0.18969
G1 X139.731 Y219.778 E0.2028
G1 X139.625 Y219.757 E0.2078
G1 X139.246 Y219.53 E0.22829
G1 X138.259 Y219.169 E0.27695
G1 X138.44 Y218.693 E0.30051
G92 E0
G1 X133.944 Y220.883 F18000
G1 F4200
G1 X133.898 Y220.84 E0.00291
G1 X133.537 Y220.63 E0.02229
G1 X132.96 Y220.454 E0.05022
G1 X132.706 Y220.528 E0.06246
G1 X132.561 Y220.14 E0.08168
G1 X132.866 Y220 E0.09718
G1 X133.263 Y219.743 E0.11911
G1 X133.81 Y219.231 E0.1538
G1 X134.24 Y218.588 E0.18965
G1 X134.394 Y218.172 E0.21017
G1 X134.796 Y218.295 E0.22962
G1 X134.719 Y218.613 E0.24477
G1 X134.917 Y219.18 E0.27258
G1 X135.165 Y219.56 E0.29362
G1 X135.498 Y219.868 E0.3146
G1 X135.898 Y220.089 E0.33576
G1 X136.334 Y220.203 E0.35667
G1 X136.691 Y220.21 E0.3732
G1 X136.481 Y220.616 E0.3944
G1 X135.789 Y221.579 E0.44932
G1 X136.654 Y222.491 E0.50755
G1 X137.485 Y223.066 E0.55434
G1 X137.748 Y223.495 E0.57765
G1 X137.859 Y223.616 E0.58526
G1 X138.059 Y224.044 E0.60716
G1 X138.175 Y224.561 E0.63167
G1 X137.265 Y224.17 E0.67755
G1 X137.155 Y224.079 E0.68416
G1 X136.912 Y223.934 E0.69728
G1 X136.835 Y223.861 E0.70216
G1 X136.64 Y223.464 E0.72266
G1 X135.496 Y221.956 E0.81034
G1 X134.655 Y222.372 E0.85379
G1 X134.603 Y221.911 E0.8753
G1 X134.455 Y221.499 E0.89559
G1 X134.213 Y221.134 E0.91587
G1 X133.988 Y220.924 E0.93013
G92 E0
G1 X129.298 Y221.167 F18000
G1 F4200
G1 X129.306 Y221.111 E0.00261
G1 X129.284 Y220.743 E0.01973
G1 X129.151 Y220.233 E0.04413
G1 X129.01 Y220.098 E0.05317
G1 X129.23 Y219.784 E0.07094
G1 X130.115 Y220.225 E0.11674
G1 X130.896 Y220.402 E0.15383
G1 X131.826 Y220.383 E0.19689
G1 X131.885 Y220.769 E0.21498
G1 X131.638 Y220.841 E0.22688
G1 X131.253 Y221.282 E0.25402
G1 X131.052 Y221.667 E0.27411
G1 X130.942 Y222.09 E0.29437
G1 X130.94 Y222.541 E0.31528
G1 X131.03 Y222.944 E0.3344
G1 X131.224 Y223.351 E0.35527
G1 X130.183 Y223.299 E0.40356
G1 X129.019 Y223.071 E0.45851
G1 X128.549 Y224.235 E0.51668
G1 X128.371 Y225.23 E0.56351
G1 X128.089 Y225.649 E0.5869
G1 X128.025 Y225.8 E0.5945
G1 X127.72 Y226.159 E0.61631
G1 X127.298 Y226.48 E0.64087
G1 X127.275 Y225.491 E0.68668
G1 X127.312 Y225.354 E0.69326
G1 X127.344 Y225.071 E0.70642
G1 X127.379 Y224.971 E0.71136
G1 X127.659 Y224.627 E0.7319
G1 X128.553 Y222.961 E0.8195
G1 X128.242 Y222.708 E0.83804
G1 X128.52 Y222.558 E0.85265
G1 X128.85 Y222.26 E0.87324
G1 X129.101 Y221.892 E0.89385
G1 X129.253 Y221.483 E0.9141
G1 X129.29 Y221.227 E0.92607
G92 E0
G1 X125.611 Y221.274 F18000
G1 F4200
G1 X125.096 Y221.638 E0.02923
G1 X124.408 Y222.379 E0.07605
G1 X123.944 Y222.581 E0.0995
G1 X123.808 Y222.673 E0.10711
G1 X123.361 Y222.81 E0.12879
G1 X122.83 Y222.851 E0.15343
G1 X123.347 Y222.005 E0.19935
G1 X123.451 Y221.91 E0.20589
G1 X123.629 Y221.691 E0.21896
G1 X123.714 Y221.624 E0.22396
G1 X124.136 Y221.487 E0.24451
G1 X125.621 Y220.662 E0.32319
G1 X125.584 Y221.096 E0.34334
G1 X125.602 Y221.214 E0.3489
G92 E0
G1 X128.41 Y219.527 F18000
G1 F4200
G1 X128.162 Y219.29 E0.01588
G1 X127.58 Y219.176 E0.04337
G1 X127.133 Y219.198 E0.06409
G1 X126.71 Y219.324 E0.08452
G1 X126.324 Y219.546 E0.10514
G1 X126.004 Y219.855 E0.12577
G1 X125.709 Y220.318 E0.15121
G1 X125.393 Y219.357 E0.19806
G1 X125.126 Y218.686 E0.23155
G1 X124.85 Y217.531 E0.28652
G1 X123.595 Y217.588 E0.34472
G1 X122.616 Y217.839 E0.39155
G1 X122.117 Y217.758 E0.41495
G1 X121.954 Y217.762 E0.42251
G1 X121.506 Y217.634 E0.44412
G1 X121.036 Y217.382 E0.46881
G1 X121.926 Y216.95 E0.51465
G1 X122.066 Y216.926 E0.5212
G1 X122.334 Y216.838 E0.53429
