; generated by PrusaSlicer 2.6.0-beta2+win64 on 2023-06-28 at 22:20:29 UTC

; 

; external perimeters extrusion width = 0.45mm
; perimeters extrusion width = 0.45mm
; infill extrusion width = 0.45mm
; solid infill extrusion width = 0.45mm
; top infill extrusion width = 0.40mm
; support material extrusion width = 0.40mm

M190 S70 ; set bed temperature and wait for it to be reached
M104 S260 ; set temperature
;TYPE:Custom
G28 ; home all axes
G1 Z5 F5000 ; lift nozzle
M109 S260 ; set temperature and wait for it to be reached
G21 ; set units to millimeters
G90 ; use absolute coordinates
M82 ; use absolute distances for extrusion
G92 E0
; Filament gcode
M107
;LAYER_CHANGE
;Z:0.2
;HEIGHT:0.2
G1 E-2 F600
G92 E0
G1 Z.2 F18000
G1 X82.204 Y108.598
G1 E2 F600
;TYPE:Skirt/Brim
;WIDTH:0.45
G1 F2400
G1 X84.339 Y107.022 E2.08982
G1 X86.844 Y106.15 E2.1796
G1 X88.468 Y105.999 E2.23481
G1 X182.959 Y105.999 E5.43322
G1 X185.582 Y106.397 E5.52302
G1 X187.97 Y107.555 E5.61285
G1 X189.217 Y108.591 E5.66773
G1 X192.145 Y111.52 E5.80792
G1 X193.719 Y113.656 E5.89773
G1 X194.589 Y116.163 E5.98755
G1 X194.737 Y117.778 E6.04244
G1 X194.737 Y141.92 E6.85962
G1 X194.34 Y144.543 E6.94942
G1 X193.182 Y146.931 E7.03925
G1 X192.145 Y148.178 E7.09415
G1 X189.217 Y151.107 E7.23434
G1 X187.08 Y152.68 E7.32416
G1 X184.574 Y153.55 E7.41395
G1 X182.959 Y153.699 E7.46885
G1 X88.468 Y153.699 E10.66726
G1 X85.845 Y153.301 E10.75706
G1 X83.457 Y152.143 E10.84689
G1 X82.204 Y151.1 E10.90207
G1 X79.274 Y148.164 E11.04247
G1 X77.702 Y146.027 E11.13227
G1 X76.835 Y143.519 E11.22209
G1 X76.688 Y141.913 E11.27668
G1 X76.688 Y117.785 E12.09338
G1 X77.086 Y115.162 E12.18318
G1 X78.243 Y112.774 E12.273
G1 X79.274 Y111.534 E12.32759
G1 X82.162 Y108.64 E12.46598
G1 X82.45 Y108.928 F18000
G1 F2400
G1 X84.582 Y107.354 E12.55568
G1 X87.039 Y106.528 E12.64342
G1 X88.468 Y106.406 E12.69197
G1 X182.959 Y106.406 E15.89038
G1 X185.519 Y106.804 E15.97807
G1 X187.839 Y107.96 E16.06581
G1 X188.929 Y108.879 E16.11407
G1 X191.858 Y111.808 E16.25428
G1 X193.387 Y113.9 E16.34199
G1 X194.21 Y116.357 E16.4297
G1 X194.33 Y117.778 E16.47797
G1 X194.33 Y141.92 E17.29515
G1 X193.933 Y144.48 E17.38284
G1 X192.777 Y146.8 E17.47058
G1 X191.858 Y147.89 E17.51884
G1 X188.929 Y150.819 E17.65905
G1 X186.837 Y152.348 E17.74676
G1 X184.38 Y153.171 E17.83447
G1 X182.959 Y153.291 E17.88274
G1 X88.468 Y153.291 E21.08115
G1 X85.907 Y152.894 E21.16887
G1 X83.588 Y151.738 E21.25658
G1 X82.492 Y150.813 E21.30512
G1 X79.562 Y147.877 E21.44552
G1 X78.035 Y145.784 E21.53322
G1 X77.214 Y143.326 E21.62094
G1 X77.095 Y141.913 E21.66894
G1 X77.095 Y117.785 E22.48564
G1 X77.493 Y115.225 E22.57333
G1 X78.648 Y112.905 E22.66105
G1 X79.562 Y111.821 E22.70904
G1 X82.407 Y108.97 E22.84537
G1 X82.696 Y109.258 F18000
G1 F2400
G1 X82.78 Y109.173 E22.84942
G1 X84.825 Y107.687 E22.93499
G1 X88.468 Y106.814 E23.06179
G1 X182.959 Y106.814 E26.2602
G1 X185.455 Y107.211 E26.34575
G1 X188.641 Y109.167 E26.47229
G1 X191.57 Y112.096 E26.6125
G1 X193.054 Y114.142 E26.69805
G1 X193.923 Y117.778 E26.82459
G1 X193.923 Y141.92 E27.64177
G1 X193.526 Y144.416 E27.72732
G1 X191.57 Y147.602 E27.85386
G1 X188.641 Y150.531 E27.99407
G1 X186.595 Y152.015 E28.07962
G1 X182.959 Y152.884 E28.20616
G1 X88.468 Y152.884 E31.40457
G1 X85.972 Y152.487 E31.49012
G1 X82.78 Y150.525 E31.61694
G1 X79.85 Y147.589 E31.75734
G1 X78.368 Y145.542 E31.84288
G1 X77.502 Y141.913 E31.96917
G1 X77.502 Y117.785 E32.78587
G1 X77.9 Y115.289 E32.87142
G1 X79.85 Y112.109 E32.99769
G1 X82.653 Y109.3 E33.13201
G1 X82.941 Y109.588 F18000
G1 F2400
G1 X83.068 Y109.46 E33.13811
G1 X85.066 Y108.021 E33.22145
G1 X88.468 Y107.221 E33.33974
G1 X182.959 Y107.221 E36.53815
G1 X185.389 Y107.618 E36.62149
G1 X188.353 Y109.455 E36.73952
G1 X191.282 Y112.384 E36.87973
G1 X192.719 Y114.383 E36.96306
G1 X193.516 Y117.778 E37.0811
G1 X193.516 Y141.92 E37.89828
G1 X193.119 Y144.35 E37.98162
G1 X191.282 Y147.314 E38.09965
G1 X188.353 Y150.243 E38.23986
G1 X186.354 Y151.68 E38.32319
G1 X182.959 Y152.477 E38.44123
G1 X88.468 Y152.477 E41.63964
G1 X86.038 Y152.08 E41.72298
G1 X83.068 Y150.238 E41.84128
G1 X80.138 Y147.302 E41.98168
G1 X78.703 Y145.301 E42.06503
G1 X77.909 Y141.913 E42.18282
G1 X77.909 Y117.785 E42.99952
G1 X78.307 Y115.355 E43.08287
G1 X80.138 Y112.396 E43.20065
G1 X82.899 Y109.63 E43.33294
G1 X83.187 Y109.918 F18000
G1 F2400
G1 X83.357 Y109.748 E43.34108
G1 X85.306 Y108.357 E43.42213
G1 X88.468 Y107.628 E43.53197
G1 X182.959 Y107.628 E46.73038
G1 X185.321 Y108.025 E46.81145
G1 X188.065 Y109.743 E46.92103
G1 X190.994 Y112.672 E47.06124
G1 X192.383 Y114.623 E47.14231
G1 X193.109 Y117.778 E47.25189
G1 X193.109 Y141.92 E48.06907
G1 X192.712 Y144.282 E48.15014
G1 X190.994 Y147.026 E48.25972
G1 X188.065 Y149.955 E48.39993
G1 X186.114 Y151.344 E48.481
G1 X182.959 Y152.07 E48.59058
G1 X88.468 Y152.07 E51.78899
G1 X86.106 Y151.673 E51.87006
G1 X83.357 Y149.95 E51.97988
G1 X80.426 Y147.014 E52.12031
G1 X79.039 Y145.062 E52.20136
G1 X78.317 Y141.913 E52.31072
G1 X78.317 Y117.785 E53.12742
G1 X78.714 Y115.423 E53.20849
G1 X80.426 Y112.684 E53.31782
G1 X83.145 Y109.96 E53.4481
G1 X83.433 Y110.248 F18000
G1 F2400
G1 X83.645 Y110.035 E53.45827
G1 X85.545 Y108.694 E53.53699
G1 X88.468 Y108.035 E53.63841
G1 X182.959 Y108.035 E56.83682
G1 X185.251 Y108.432 E56.91556
G1 X187.777 Y110.031 E57.01675
G1 X190.706 Y112.96 E57.15696
G1 X192.046 Y114.861 E57.23569
G1 X192.702 Y117.778 E57.33689
G1 X192.702 Y141.92 E58.15407
G1 X192.305 Y144.212 E58.23281
G1 X190.706 Y146.738 E58.334
G1 X187.777 Y149.667 E58.47421
G1 X185.876 Y151.007 E58.55294
G1 X182.959 Y151.663 E58.65414
G1 X88.468 Y151.663 E61.85255
G1 X86.176 Y151.266 E61.93129
G1 X83.645 Y149.662 E62.03272
G1 X80.715 Y146.726 E62.17312
G1 X79.377 Y144.824 E62.25183
G1 X78.724 Y141.913 E62.35281
G1 X78.724 Y117.785 E63.16951
G1 X79.121 Y115.493 E63.24825
G1 X80.715 Y112.971 E63.34924
G1 X83.39 Y110.29 E63.47743
G1 X83.679 Y110.578 F18000
G1 F2400
G1 X83.933 Y110.323 E63.48961
G1 X85.782 Y109.032 E63.56594
G1 X88.468 Y108.442 E63.65903
G1 X182.959 Y108.442 E66.85744
G1 X185.179 Y108.839 E66.93378
G1 X187.489 Y110.318 E67.02662
G1 X190.418 Y113.247 E67.16683
G1 X191.707 Y115.098 E67.24318
G1 X192.295 Y117.778 E67.33605
G1 X192.295 Y141.92 E68.15323
G1 X191.898 Y144.14 E68.22957
G1 X190.418 Y146.451 E68.32246
G1 X187.489 Y149.379 E68.46265
G1 X185.639 Y150.669 E68.53899
G1 X182.959 Y151.256 E68.63186
G1 X88.468 Y151.256 E71.83027
G1 X86.248 Y150.859 E71.90661
G1 X83.933 Y149.375 E71.99969
G1 X81.003 Y146.439 E72.14009
G1 X79.715 Y144.587 E72.21645
G1 X79.131 Y141.913 E72.3091
G1 X79.131 Y117.785 E73.1258
G1 X79.528 Y115.565 E73.20214
G1 X81.003 Y113.259 E73.2948
G1 X83.636 Y110.62 E73.42098
;WIPE_START
G1 F14400
G1 X83.933 Y110.323 E73.40435
G1 X85.782 Y109.032 E73.31509
G1 X88.468 Y108.442 E73.20623
G1 X133.569 Y108.442 E71.42098
;WIPE_END
G92 E0
G1 X88.067 Y115.838 F18000
G1 E2 F600
G1 F2400
G1 X89.415 Y115.26 E2.04965
G1 X90.126 Y115.168 E2.07392
G1 X181.393 Y115.171 E5.1632
G1 X182.335 Y115.358 E5.19571
G1 X183.227 Y115.746 E5.22864
G1 X184.447 Y116.781 E5.28279
G1 X185.202 Y117.94 E5.32961
G1 X185.569 Y119.324 E5.37808
G1 X185.556 Y140.477 E6.09408
G1 X185.206 Y141.749 E6.13874
G1 X184.486 Y142.875 E6.18398
G1 X183.363 Y143.86 E6.23454
G1 X182.015 Y144.438 E6.28419
G1 X181.304 Y144.53 E6.30846
G1 X90.017 Y144.53 E9.39842
G1 X88.697 Y144.191 E9.44455
G1 X87.515 Y143.447 E9.49183
G1 X86.531 Y142.324 E9.54237
G1 X85.953 Y140.976 E9.59202
G1 X85.86 Y140.265 E9.61629
G1 X85.874 Y119.221 E10.3286
G1 X86.224 Y117.949 E10.37326
G1 X86.944 Y116.823 E10.4185
G1 X88.021 Y115.878 E10.467
G1 X88.259 Y116.198 F18000
G1 F2400
G1 X89.497 Y115.66 E10.51269
G1 X90.139 Y115.575 E10.53461
G1 X181.372 Y115.579 E13.62274
G1 X182.233 Y115.752 E13.65247
G1 X183.034 Y116.106 E13.68211
G1 X184.159 Y117.07 E13.73226
G1 X184.842 Y118.133 E13.77503
G1 X185.162 Y119.35 E13.81762
G1 X185.156 Y140.398 E14.53007
G1 X184.845 Y141.559 E14.57075
G1 X184.194 Y142.591 E14.61205
G1 X183.17 Y143.5 E14.6584
G1 X181.933 Y144.038 E14.70406
G1 X181.291 Y144.123 E14.72598
G1 X90.043 Y144.123 E17.81462
G1 X88.831 Y143.805 E17.85703
G1 X87.8 Y143.155 E17.89828
G1 X86.891 Y142.131 E17.94463
G1 X86.353 Y140.894 E17.99029
G1 X86.268 Y140.252 E18.01221
G1 X86.274 Y119.3 E18.72141
G1 X86.585 Y118.139 E18.76209
G1 X87.236 Y117.107 E18.80339
G1 X88.215 Y116.238 E18.8477
G1 X88.455 Y116.557 F18000
G1 F2400
G1 X89.581 Y116.059 E18.88938
G1 X90.153 Y115.982 E18.90892
G1 X181.351 Y115.986 E21.99586
G1 X182.128 Y116.146 E22.02271
G1 X182.84 Y116.464 E22.0491
G1 X183.87 Y117.358 E22.09527
G1 X184.457 Y118.269 E22.13195
G1 X184.755 Y119.377 E22.17079
G1 X184.755 Y140.322 E22.87975
G1 X184.482 Y141.371 E22.91644
G1 X183.899 Y142.309 E22.95382
G1 X182.975 Y143.141 E22.99591
G1 X181.849 Y143.639 E23.03759
G1 X181.277 Y143.716 E23.05713
G1 X90.069 Y143.716 E26.14441
G1 X89.02 Y143.443 E26.1811
G1 X88.082 Y142.86 E26.21848
G1 X87.25 Y141.936 E26.26057
G1 X86.752 Y140.81 E26.30225
G1 X86.675 Y140.238 E26.32179
G1 X86.675 Y119.376 E27.02794
G1 X86.948 Y118.327 E27.06463
G1 X87.531 Y117.389 E27.10201
G1 X88.41 Y116.597 E27.14206
G1 X88.652 Y116.914 F18000
G1 F2400
G1 X89.667 Y116.458 E27.17972
G1 X90.168 Y116.389 E27.19684
G1 X181.33 Y116.393 E30.28257
G1 X181.982 Y116.527 E30.3051
G1 X182.645 Y116.823 E30.32968
G1 X183.579 Y117.643 E30.37175
G1 X184.097 Y118.46 E30.40449
G1 X184.348 Y119.403 E30.43752
G1 X184.348 Y140.295 E31.14469
G1 X184.097 Y141.236 E31.17766
G1 X183.603 Y142.028 E31.20926
G1 X182.777 Y142.784 E31.24716
G1 X181.763 Y143.24 E31.28479
G1 X181.262 Y143.309 E31.30191
G1 X90.096 Y143.309 E34.38777
G1 X89.154 Y143.058 E34.42077
G1 X88.363 Y142.564 E34.45234
G1 X87.607 Y141.738 E34.49024
G1 X87.151 Y140.724 E34.52787
G1 X87.082 Y140.223 E34.54499
G1 X87.082 Y119.403 E35.24972
G1 X87.333 Y118.461 E35.28272
G1 X87.827 Y117.67 E35.31429
G1 X88.608 Y116.954 E35.35015
G1 X88.853 Y117.27 F18000
G1 F2400
G1 X89.754 Y116.857 E35.3837
G1 X90.182 Y116.796 E35.39833
G1 X181.308 Y116.8 E38.48284
G1 X181.874 Y116.92 E38.50242
G1 X182.448 Y117.181 E38.52376
G1 X183.286 Y117.928 E38.56176
G1 X183.712 Y118.598 E38.58863
G1 X183.941 Y119.431 E38.61787
G1 X183.941 Y140.267 E39.32314
G1 X183.713 Y141.099 E39.35234
G1 X183.306 Y141.749 E39.3783
G1 X182.577 Y142.428 E39.41202
G1 X181.675 Y142.841 E39.4456
G1 X181.247 Y142.902 E39.46023
G1 X90.124 Y142.902 E42.54464
G1 X89.292 Y142.674 E42.57384
G1 X88.642 Y142.267 E42.5998
G1 X87.962 Y141.538 E42.63354
G1 X87.55 Y140.636 E42.66711
G1 X87.489 Y140.209 E42.68171
G1 X87.489 Y119.431 E43.38502
G1 X87.717 Y118.599 E43.41422
G1 X88.124 Y117.949 E43.44018
G1 X88.809 Y117.31 E43.47189
G1 X89.057 Y117.623 F18000
G1 F2400
G1 X89.844 Y117.255 E43.5013
G1 X90.198 Y117.203 E43.51341
G1 X181.285 Y117.207 E46.5966
G1 X181.764 Y117.312 E46.6132
G1 X182.247 Y117.536 E46.63122
G1 X182.993 Y118.211 E46.66527
G1 X183.329 Y118.739 E46.68645
G1 X183.534 Y119.46 E46.71182
G1 X183.534 Y140.238 E47.41513
G1 X183.329 Y140.959 E47.4405
G1 X183.007 Y141.472 E47.461
G1 X182.373 Y142.075 E47.49062
G1 X181.585 Y142.443 E47.52006
G1 X181.232 Y142.495 E47.53214
G1 X90.153 Y142.495 E50.61506
G1 X89.432 Y142.291 E50.64042
G1 X88.919 Y141.968 E50.66094
G1 X88.316 Y141.334 E50.69056
G1 X87.948 Y140.546 E50.72
G1 X87.896 Y140.193 E50.73208
G1 X87.896 Y119.46 E51.43387
G1 X88.1 Y118.739 E51.45923
G1 X88.423 Y118.226 E51.47975
G1 X89.013 Y117.665 E51.50731
G1 X89.264 Y117.975 F18000
G1 F2400
G1 X89.937 Y117.652 E51.53258
G1 X90.214 Y117.61 E51.54206
G1 X181.261 Y117.614 E54.62389
G1 X181.649 Y117.704 E54.63737
G1 X182.044 Y117.89 E54.65215
G1 X182.697 Y118.492 E54.68221
G1 X182.948 Y118.882 E54.69791
G1 X183.127 Y119.491 E54.7194
G1 X183.127 Y140.207 E55.42061
G1 X182.948 Y140.816 E55.4421
G1 X182.705 Y141.198 E55.45742
G1 X182.165 Y141.723 E55.48291
G1 X181.492 Y142.045 E55.50816
G1 X181.216 Y142.088 E55.51761
G1 X90.184 Y142.088 E58.59893
G1 X89.575 Y141.909 E58.62042
G1 X89.193 Y141.666 E58.63574
G1 X88.668 Y141.126 E58.66123
G1 X88.345 Y140.454 E58.68647
G1 X88.303 Y140.177 E58.69595
G1 X88.303 Y119.491 E59.39615
G1 X88.482 Y118.882 E59.41764
G1 X88.725 Y118.5 E59.43296
G1 X89.221 Y118.017 E59.45639
G1 X89.476 Y118.324 F18000
G1 F2400
G1 X90.034 Y118.049 E59.47745
G1 X90.231 Y118.017 E59.48421
G1 X181.238 Y118.021 E62.56469
G1 X181.495 Y118.081 E62.57362
G1 X181.84 Y118.244 E62.58654
G1 X182.4 Y118.771 E62.61257
G1 X182.568 Y119.031 E62.62305
G1 X182.72 Y119.523 E62.64048
G1 X182.72 Y140.175 E63.33953
G1 X182.568 Y140.667 E63.35696
G1 X182.402 Y140.926 E63.36737
G1 X181.953 Y141.374 E63.38884
G1 X181.396 Y141.649 E63.40987
G1 X181.199 Y141.681 E63.41663
G1 X90.215 Y141.681 E66.49633
G1 X89.723 Y141.529 E66.51376
G1 X89.465 Y141.363 E66.52414
G1 X89.017 Y140.914 E66.54561
G1 X88.742 Y140.357 E66.56664
G1 X88.71 Y140.16 E66.5734
G1 X88.71 Y119.523 E67.27194
G1 X88.862 Y119.03 E67.2894
G1 X89.028 Y118.772 E67.29978
G1 X89.434 Y118.366 E67.31921
G1 X89.722 Y118.654 F18000
G1 F2400
G1 X90.133 Y118.445 E67.33482
G1 X90.25 Y118.424 E67.33884
G1 X181.214 Y118.428 E70.41786
G1 X181.34 Y118.458 E70.42224
G1 X181.635 Y118.597 E70.43328
G1 X182.1 Y119.047 E70.45518
G1 X182.191 Y119.185 E70.46078
G1 X182.313 Y119.557 E70.47403
G1 X182.313 Y140.141 E71.17077
G1 X182.191 Y140.513 E71.18402
G1 X182.099 Y140.652 E71.18966
G1 X181.69 Y141.062 E71.20926
G1 X181.297 Y141.253 E71.22405
G1 X181.18 Y141.274 E71.22807
G1 X90.25 Y141.274 E74.30594
G1 X89.878 Y141.152 E74.31919
G1 X89.738 Y141.06 E74.32486
G1 X89.329 Y140.651 E74.34444
G1 X89.137 Y140.258 E74.35925
G1 X89.117 Y140.141 E74.36327
G1 X89.117 Y119.557 E75.06001
G1 X89.239 Y119.185 E75.07326
G1 X89.33 Y119.046 E75.07888
G1 X89.679 Y118.697 E75.09559
G1 X89.967 Y118.984 F18000
G1 F2400
G1 X90.002 Y118.95 E75.09724
G1 X90.272 Y118.831 E75.10723
G1 X181.192 Y118.838 E78.18476
G1 X181.428 Y118.95 E78.1936
G1 X181.798 Y119.32 E78.21131
G1 X181.906 Y119.595 E78.22131
G1 X181.906 Y140.103 E78.91548
G1 X181.798 Y140.378 E78.92548
G1 X181.428 Y140.748 E78.94319
G1 X181.158 Y140.867 E78.95318
G1 X90.288 Y140.867 E82.02902
G1 X90.013 Y140.759 E82.03902
G1 X89.642 Y140.389 E82.05676
G1 X89.524 Y140.119 E82.06673
G1 X89.524 Y119.595 E82.76144
G1 X89.632 Y119.32 E82.77144
G1 X89.925 Y119.027 E82.78547
G1 X90.213 Y119.315 F18000
G1 F2400
G1 X90.258 Y119.269 E82.78765
G1 X90.333 Y119.238 E82.7904
G1 X181.097 Y119.238 E85.86265
G1 X181.172 Y119.269 E85.8654
G1 X181.468 Y119.565 E85.87957
G1 X181.499 Y119.64 E85.88232
G1 X181.499 Y140.058 E86.57345
G1 X181.468 Y140.133 E86.5762
G1 X181.172 Y140.429 E86.59037
G1 X181.097 Y140.46 E86.59312
G1 X90.333 Y140.46 E89.66537
G1 X90.258 Y140.429 E89.66812
G1 X89.962 Y140.133 E89.68229
G1 X89.931 Y140.058 E89.68504
G1 X89.931 Y119.64 E90.37617
G1 X89.962 Y119.565 E90.37892
G1 X90.17 Y119.357 E90.38888
G1 X90.458 Y119.645 F18000
G1 F2400
G1 X180.972 Y119.645 E93.45267
G1 X181.091 Y119.765 E93.45839
G1 X181.091 Y139.933 E94.14105
G1 X180.972 Y140.053 E94.14677
G1 X90.458 Y140.053 E97.21056
G1 X90.338 Y139.933 E97.2163
G1 X90.338 Y119.765 E97.89896
G1 X90.415 Y119.688 E97.90265
;WIPE_START
G1 F14400
G1 X140.941 Y119.664 E95.90265
;WIPE_END
G92 E0
G1 X168.902 Y125.273 F18000
G1 E2 F600
;TYPE:Perimeter
;WIDTH:0.449999
G1 F2400
G1 X168.357 Y125.259 E2.01845
;WIDTH:0.490363
G1 X167.827 Y125.291 E2.0382
;WIDTH:0.529409
G1 X167.747 Y125.282 E2.04146
;WIDTH:0.568454
G1 X167.666 Y125.273 E2.04502
;WIDTH:0.607499
G1 X167.585 Y125.263 E2.04885
;WIDTH:0.646544
G1 X167.505 Y125.254 E2.05289
G1 X167.072 Y125.389 E2.07565
;WIDTH:0.611474
G1 X166.294 Y125.698 E2.11523
;WIDTH:0.601207
G1 X165.439 Y126.188 E2.16098
;WIDTH:0.642061
G1 X164.942 Y126.551 E2.19164
G1 X164.875 Y126.639 E2.19715
;WIDTH:0.594046
G1 X164.807 Y126.726 E2.20221
;WIDTH:0.54603
G1 X164.74 Y126.814 E2.20684
;WIDTH:0.498015
G1 X164.672 Y126.902 E2.21105
;WIDTH:0.449999
G1 X164.235 Y127.318 E2.23147
G1 X163.068 Y128.574 E2.2895
G1 X162.589 Y128.984 E2.31084
G1 X162.075 Y129.296 E2.33119
G1 X161.518 Y129.535 E2.35171
G1 X160.606 Y129.743 E2.38337
