; generated by SuperSlicer 2.4 on 2023-06-14 at 17:01:48 UTC

; 

; external perimeters extrusion width = 0.42mm
; perimeters extrusion width = 0.46mm
; infill extrusion width = 0.44mm
; solid infill extrusion width = 0.46mm
; top infill extrusion width = 0.44mm
; support material extrusion width = 0.40mm
; first layer extrusion width = 0.60mm

; external perimeters extrusion width = 0.42mm
; perimeters extrusion width = 0.46mm
; infill extrusion width = 0.44mm
; solid infill extrusion width = 0.46mm
; top infill extrusion width = 0.44mm
; support material extrusion width = 0.40mm
; first layer extrusion width = 0.60mm

; object:{"name":"main_chamfered-Cover","id":"main_chamfered-Cover.obj id:0 copy 0","object_center":[132.500000,132.500000,0.000000],"boundingbox_center":[132.500000,132.500000,6.999000],"boundingbox_size":[94.143997,20.000000,13.998000]}
; plater:{"center":[132.500000,132.500000,0.000000],"boundingbox_center":[132.500000,132.500000,6.999000],"boundingbox_size":[94.143997,20.000000,13.998000]}

;TYPE:Custom
G28 ; home all axes
G1 Z5 F5000 ; lift nozzle
M107
G21 ; set units to millimeters
G90 ; use absolute coordinates
M82 ; use absolute distances for extrusion
G92 E0
; Filament gcode
;_TOOLCHANGE 0
M104 S275 ; set temperature
M109 S275 ; set temperature and wait for it to be reached
M190 S70 ; set bed temperature and wait for it to be reached
M107
;LAYER_CHANGE
;Z:0.2
;HEIGHT:0.2
G1 E-2 F600
G1 Z0.15 F15000
G1 Z0.2
G92 E0
G1 Z0.35
G1 X83.26 Y116.329
G1 Z0.2
G1 E2.4 F600
;TYPE:Skirt
;WIDTH:0.44
G1 F2400
G1 X81.483 Y117.976 E2.48001
G1 X80.334 Y120.11 E2.56001
G1 X79.936 Y122.5 E2.64002
G1 X79.936 Y142.5 E3.30037
G1 X80.172 Y144.351 E3.36198
G1 X81.155 Y146.566 E3.44199
G1 X82.802 Y148.343 E3.522
G1 X84.936 Y149.492 E3.602
G1 X87.326 Y149.89 E3.68201
G1 X177.672 Y149.89 E6.66499
G1 X179.523 Y149.654 E6.72661
G1 X181.738 Y148.671 E6.80661
G1 X183.515 Y147.024 E6.88662
G1 X184.664 Y144.89 E6.96663
G1 X185.062 Y142.5 E7.04664
G1 X185.062 Y122.5 E7.70698
G1 X184.826 Y120.649 E7.7686
G1 X183.843 Y118.434 E7.8486
G1 X182.196 Y116.657 E7.92861
G1 X180.062 Y115.508 E8.00862
G1 X177.672 Y115.11 E8.08863
G1 X87.326 Y115.11 E11.07161
G1 X85.475 Y115.346 E11.13322
G1 X83.315 Y116.305 E11.21125
G1 X83.583 Y116.608 F15000
G1 F2400
G1 X81.877 Y118.118 E11.28647
G1 X80.73 Y120.177 E11.36429
G1 X80.333 Y122.5 E11.4421
G1 X80.333 Y142.5 E12.10245
G1 X80.496 Y144 E12.15227
G1 X81.382 Y146.184 E12.23008
G1 X82.944 Y147.949 E12.3079
G1 X85.003 Y149.096 E12.38571
G1 X87.326 Y149.493 E12.46352
G1 X177.672 Y149.493 E15.4465
G1 X179.172 Y149.33 E15.49633
G1 X181.356 Y148.444 E15.57414
G1 X183.121 Y146.882 E15.65195
G1 X184.268 Y144.823 E15.72977
G1 X184.665 Y142.5 E15.80758
G1 X184.665 Y122.5 E16.46793
G1 X184.502 Y121 E16.51775
G1 X183.616 Y118.816 E16.59556
G1 X182.054 Y117.051 E16.67338
G1 X179.995 Y115.904 E16.75119
G1 X177.672 Y115.507 E16.829
G1 X87.326 Y115.507 E19.81198
G1 X85.826 Y115.67 E19.86181
G1 X83.642 Y116.556 E19.93962
G1 X83.628 Y116.569 E19.94023
G1 X83.901 Y116.893 F15000
G1 F2400
G1 X82.27 Y118.264 E20.01057
G1 X81.127 Y120.246 E20.08612
G1 X80.73 Y122.5 E20.16167
G1 X80.73 Y142.5 E20.82202
G1 X80.832 Y143.655 E20.86029
G1 X81.618 Y145.804 E20.93584
G1 X83.09 Y147.556 E21.0114
G1 X85.072 Y148.699 E21.08695
G1 X87.326 Y149.096 E21.16251
G1 X177.672 Y149.096 E24.14549
G1 X178.827 Y148.994 E24.18376
G1 X180.976 Y148.208 E24.25931
G1 X182.728 Y146.736 E24.33487
G1 X183.871 Y144.754 E24.41042
G1 X184.268 Y142.5 E24.48597
G1 X184.268 Y122.5 E25.14632
G1 X184.166 Y121.345 E25.18459
G1 X183.38 Y119.196 E25.26014
G1 X181.908 Y117.444 E25.3357
G1 X179.926 Y116.301 E25.41125
G1 X177.672 Y115.904 E25.48681
G1 X87.326 Y115.904 E28.46979
G1 X86.171 Y116.006 E28.50806
G1 X84.022 Y116.792 E28.58361
G1 X83.947 Y116.855 E28.58685
G1 X84.211 Y117.186 F15000
G1 F2400
G1 X82.664 Y118.415 E28.65208
G1 X81.524 Y120.318 E28.7253
G1 X81.127 Y122.5 E28.79853
G1 X81.127 Y142.5 E29.45888
G1 X81.861 Y145.426 E29.55848
G1 X83.241 Y147.162 E29.6317
G1 X85.144 Y148.302 E29.70493
G1 X87.326 Y148.699 E29.77816
G1 X177.672 Y148.699 E32.76114
G1 X180.598 Y147.965 E32.86074
G1 X182.334 Y146.585 E32.93396
G1 X183.474 Y144.682 E33.00719
G1 X183.871 Y142.5 E33.08042
G1 X183.871 Y122.5 E33.74076
G1 X183.137 Y119.574 E33.84036
G1 X181.757 Y117.838 E33.91359
G1 X179.854 Y116.698 E33.98682
G1 X177.672 Y116.301 E34.06004
G1 X87.326 Y116.301 E37.04303
G1 X84.4 Y117.035 E37.14262
G1 X84.257 Y117.149 E37.14864
G92 E0
G1 Z0.35 F15000
; printing object main_chamfered-Cover.obj id:0 copy 0
G1 X114.828 Y134.921
G1 Z0.2
;TYPE:External perimeter
;WIDTH:0.604
G1 F2400
G1 X114.628 Y134.575
G1 X116.028 Y134.572 E0.06533
G1 X116.421 Y134.445 E0.08456
G1 X116.379 Y134.649 E0.09423
G1 X116.326 Y135.107 E0.11578
G1 X116.316 Y135.597 E0.13861
G1 X116.342 Y135.99 E0.15699
G1 X116.053 Y135.989 E0.17045
;TYPE:Thin wall
;WIDTH:0.022162
G1 X116.052 Y136.316
;WIDTH:0.199459
G1 X116.18 Y136.372 E0.17232
;WIDTH:0.36
G1 X116.237 Y136.404 E0.17406
G1 X116.405 Y136.52 E0.17953
;WIDTH:0.544556
G1 X116.501 Y136.498 E0.18365
G1 X116.569 Y136.485 E0.18656
;WIDTH:0.302307
G1 X116.712 Y136.45 E0.1898
;WIDTH:0.03359
G1 X116.569 Y136.485 E0.19016
;WIDTH:0.060506
G1 X116.501 Y136.498 E0.19048
G1 X116.405 Y136.52 E0.19094
;WIDTH:0.04
G1 X116.237 Y136.404 E0.19154
G1 X116.18 Y136.372 E0.19174
;WIDTH:0.022162
G1 X116.052 Y136.316 E0.19195
;WIDTH:0.221621
G1 X116.053 Y135.989
;TYPE:External perimeter
;WIDTH:0.604
G1 X114.628 Y135.983 E0.25843
G1 X114.628 Y134.635 E0.32131
;WIPE_START
G1 X114.628 Y134.575 F15000
G1 X115.128 Y134.574
G1 X115.329 Y134.92
;WIPE_END
G92 E0
G1 Z0.35
G1 X147.001 Y134.676
G1 Z0.2
;TYPE:Internal perimeter
G1 F2400
G1 X145.895 Y134.671 E0.05162
G1 X145.895 Y134.131 E0.07678
G1 X147.309 Y134.129 E0.14276
G1 X147.053 Y134.663 E0.17041
G92 E0
G1 Z0.35 F15000
G1 X160.082 Y140.712
G1 Z0.2
G1 F2400
G1 X160.465 Y140.771 E0.01808
G1 X160.549 Y140.743 E0.02219
G1 X161.096 Y140.781 E0.0478
G1 X161.38 Y140.664 E0.06211
G1 X161.476 Y140.727 E0.06745
G1 X162.028 Y140.847 E0.09379
G1 X162.419 Y140.781 E0.1123
G1 X162.726 Y140.645 E0.12798
G1 X162.873 Y140.713 E0.13553
G1 X163.34 Y140.788 E0.15763
G1 X163.596 Y140.743 E0.16976
G1 X163.676 Y140.98 E0.18143
G1 X163.964 Y141.637 E0.21489
G1 X160.375 Y141.637 E0.38234
G1 X160.1 Y140.769 E0.4248
G92 E0
G1 Z0.35 F15000
G1 X176.248 Y141.076
G1 Z0.2
G1 F2400
G1 X166.857 Y141.076 E0.43814
G1 X166.878 Y140.662 E0.45748
G1 X167.767 Y140.359 E0.50129
G1 X168.109 Y140.125 E0.52065
G1 X168.49 Y140.048 E0.53876
G1 X168.754 Y140.112 E0.55143
G1 X169.6 Y139.724 E0.59484
G1 X169.964 Y139.36 E0.61885
G1 X170.508 Y139.498 E0.64506
G1 X171.138 Y140.287 E0.69217
G1 X172.823 Y138.977 E0.79171
G1 X172.924 Y138.932 E0.79687
G1 X174.782 Y137.264 E0.91338
G1 X172.6 Y134.851 E1.06514
G1 X172.514 Y134.933 E1.0707
G1 X172.205 Y134.647 E1.09037
G1 X172.867 Y133.834 E1.13929
G1 X173.391 Y133.086 E1.18188
G1 X173.852 Y132.336 E1.22295
G1 X174.073 Y131.933 E1.24441
G1 X174.446 Y131.168 E1.28411
G1 X174.756 Y130.389 E1.32322
G1 X174.991 Y129.631 E1.36026
G1 X175.091 Y129.206 E1.38062
G1 X175.166 Y128.718 E1.40366
G1 X175.199 Y128.275 E1.42437
G1 X175.181 Y127.487 E1.46113
G1 X175.107 Y127.06 E1.48139
G1 X174.932 Y126.556 E1.50628
G1 X174.741 Y126.179 E1.52597
G1 X174.454 Y125.789 E1.54858
G1 X174.111 Y125.467 E1.5705
G1 X173.65 Y125.193 E1.59553
G1 X173.15 Y125.038 E1.61997
G1 X172.84 Y125.009 E1.6345
G1 X172.696 Y124.768 E1.64756
G1 X171.897 Y125.052 E1.68712
G1 X171.67 Y124.574 E1.7118
G1 X171.209 Y123.924 E1.74899
G1 X176.248 Y123.924 E1.98409
G1 X176.248 Y141.016 E2.78149
G1 X176.809 Y141.637 F15000
G1 F2400
G1 X165.787 Y141.637 E3.29568
G1 X166.201 Y141.073 E3.3283
G1 X166.312 Y140.745 E3.34445
G1 X166.337 Y140.253 E3.36744
G1 X167.513 Y139.853 E3.42539
G1 X167.886 Y139.597 E3.4465
G1 X168.389 Y139.496 E3.47043
G1 X168.464 Y139.465 E3.47421
G1 X168.696 Y139.521 E3.48536
G1 X169.274 Y139.256 E3.51502
G1 X169.614 Y138.917 E3.53741
G1 X169.95 Y138.697 E3.55616
G1 X170.044 Y138.802 E3.56272
G1 X170.579 Y138.937 E3.58851
G1 X170.739 Y138.887 E3.59629
G1 X171.231 Y139.504 E3.63312
G1 X172.532 Y138.493 E3.70999
G1 X172.614 Y138.456 E3.71421
G1 X173.988 Y137.222 E3.80034
G1 X172.571 Y135.655 E3.89892
G1 X172.398 Y135.82 E3.91009
G1 X171.73 Y135.034 E3.95821
G1 X171.779 Y134.965 E3.96216
G1 X171.545 Y134.524 E3.98544
G1 X171.76 Y134.303 E3.99982
G1 X172.419 Y133.495 E4.04845
G1 X172.922 Y132.778 E4.08931
G1 X173.366 Y132.054 E4.12895
G1 X173.575 Y131.675 E4.14913
G1 X173.932 Y130.941 E4.18721
G1 X174.226 Y130.202 E4.22433
G1 X174.449 Y129.483 E4.25943
G1 X174.54 Y129.099 E4.27786
G1 X174.608 Y128.654 E4.29885
G1 X174.638 Y128.261 E4.31726
G1 X174.621 Y127.542 E4.35079
G1 X174.562 Y127.201 E4.36695
G1 X174.414 Y126.776 E4.38795
G1 X174.262 Y126.474 E4.40371
G1 X174.032 Y126.163 E4.42175
G1 X173.772 Y125.918 E4.43842
G1 X173.421 Y125.71 E4.45748
G1 X173.039 Y125.591 E4.47614
G1 X172.504 Y125.54 E4.50118
G1 X172.451 Y125.451 E4.50604
G1 X171.469 Y125.799 E4.55464
G1 X171.469 Y125.46 E4.57048
G1 X171.184 Y124.859 E4.60152
G1 X170.841 Y124.375 E4.62918
G1 X170.549 Y124.089 E4.64827
G1 X170.277 Y123.872 E4.66449
G1 X169.982 Y123.689 E4.68068
G1 X170.075 Y123.363 E4.69648
G1 X176.809 Y123.363 E5.01062
G1 X176.809 Y141.577 E5.86036
G92 E0
G1 Z0.35 F15000
G1 X124.067 Y132.804
G1 Z0.2
G1 F2400
G1 X124.015 Y133.178 E0.01764
G1 X124.072 Y133.593 E0.03719
G1 X124.301 Y133.995 E0.0588
G1 X124.668 Y134.27 E0.08019
G1 X125.05 Y134.379 E0.09869
G1 X125.897 Y134.38 E0.13821
G1 X125.565 Y135.015 E0.17165
G1 X125.542 Y135.621 E0.19993
G1 X125.699 Y136.098 E0.22338
G1 X125.969 Y136.391 E0.24195
G1 X126.297 Y136.571 E0.25942
G1 X126.645 Y136.646 E0.27602
G1 X130.315 Y136.611 E0.44723
G1 X130.269 Y138.389 E0.53019
G1 X130.424 Y138.837 E0.55229
G1 X130.753 Y139.171 E0.57418
G1 X131.108 Y139.355 E0.59284
G1 X131.56 Y139.421 E0.61412
G1 X132.058 Y139.309 E0.63796
G1 X132.472 Y138.982 E0.66257
G1 X132.704 Y138.588 E0.68389
G1 X132.793 Y138.121 E0.70608
G1 X132.779 Y137.567 E0.73195
G1 X132.83 Y135.701 E0.81903
G1 X132.812 Y135.363 E0.83481
G1 X132.738 Y135.034 E0.85053
G1 X132.597 Y134.74 E0.86579
G1 X132.286 Y134.385 E0.8878
G1 X133.406 Y134.385 E0.94004
G1 X133.473 Y134.57 E0.94922
G1 X133.788 Y134.935 E0.97171
G1 X134.162 Y135.103 E0.99082
G1 X134.443 Y135.138 E1.00404
G1 X135.706 Y135.127 E1.06295
G1 X135.424 Y135.523 E1.0856
G1 X135.267 Y135.874 E1.10355
G1 X135.178 Y136.215 E1.11998
G1 X135.131 Y136.604 E1.13827
G1 X135.129 Y136.98 E1.15581
G1 X135.166 Y137.374 E1.17426
G1 X135.253 Y137.759 E1.19268
G1 X135.396 Y138.12 E1.21081
G1 X135.553 Y138.392 E1.22545
G1 X135.746 Y138.647 E1.24038
G1 X135.97 Y138.88 E1.25544
G1 X136.248 Y139.098 E1.27193
G1 X136.799 Y139.386 E1.30097
G1 X137.393 Y139.554 E1.32974
G1 X137.846 Y139.619 E1.3511
G1 X138.423 Y139.658 E1.3781
G1 X139.156 Y139.637 E1.41229
G1 X139.943 Y139.494 E1.44962
G1 X140.344 Y139.364 E1.46928
G1 X140.643 Y139.229 E1.48459
G1 X141.059 Y138.976 E1.50731
G1 X141.451 Y138.62 E1.53202
G1 X141.76 Y138.202 E1.55628
G1 X141.979 Y137.692 E1.58218
G1 X142.073 Y137.18 E1.60646
G1 X142.073 Y136.548 E1.63594
G1 X141.972 Y136.011 E1.66144
G1 X141.806 Y135.599 E1.68214
G1 X141.511 Y135.132 E1.70793
G1 X142.521 Y135.144 E1.75506
G1 X142.984 Y135.079 E1.77689
G1 X143.475 Y134.853 E1.80207
G1 X143.479 Y135.76 E1.84439
G1 X143.464 Y138.604 E1.97707
G1 X143.614 Y139.07 E1.99993
G1 X143.939 Y139.415 E2.02205
G1 X144.33 Y139.624 E2.04271
G1 X144.752 Y139.667 E2.06251
G1 X145.147 Y139.58 E2.08135
G1 X145.512 Y139.348 E2.10153
G1 X145.766 Y139.01 E2.12123
G1 X145.889 Y138.604 E2.14103
G1 X145.891 Y137.948 E2.17166
G1 X146.255 Y137.879 E2.18898
G1 X146.399 Y138.244 E2.2073
G1 X146.613 Y138.524 E2.22374
G1 X146.879 Y138.727 E2.23933
G1 X147.26 Y138.874 E2.2584
G1 X147.573 Y138.907 E2.27307
G1 X151.428 Y138.905 E2.45295
G1 X151.724 Y138.854 E2.46697
G1 X152.104 Y138.66 E2.48686
G1 X152.424 Y138.261 E2.51072
G1 X152.537 Y137.912 E2.52783
G1 X152.557 Y137.561 E2.54425
G1 X152.437 Y137.1 E2.56647
G1 X152.039 Y136.616 E2.59571
G1 X151.526 Y136.429 E2.62117
G1 X149.037 Y136.426 E2.73728
G1 X149.146 Y136.105 E2.75308
G1 X149.273 Y135.802 E2.76842
G1 X149.56 Y135.213 E2.79897
G1 X149.796 Y134.789 E2.82163
G1 X150.059 Y134.367 E2.84481
G1 X150.437 Y133.822 E2.87577
G1 X151.09 Y133.025 E2.92383
G1 X151.469 Y132.62 E2.94971
G1 X151.866 Y132.232 E2.97561
G1 X152.372 Y131.778 E3.0073
G1 X152.676 Y131.404 E3.02982
G1 X152.791 Y130.997 E3.04956
G1 X152.742 Y130.577 E3.06927
G1 X152.492 Y130.112 E3.09391
G1 X152.082 Y129.794 E3.11809
G1 X151.61 Y129.719 E3.14041
G1 X151.235 Y129.795 E3.15821
G1 X150.829 Y129.961 E3.1787
G1 X150.193 Y130.514 E3.21801
G1 X149.674 Y131.01 E3.25151
G1 X149.176 Y131.531 E3.28514
G1 X148.62 Y132.179 E3.32498
G1 X148.319 Y132.57 E3.34802
G1 X148.172 Y132.184 E3.36732
G1 X147.859 Y131.834 E3.38919
G1 X147.395 Y131.657 E3.41236
G1 X145.886 Y131.654 E3.4828
G1 X145.895 Y128.23 E3.64259
G1 X145.759 Y127.784 E3.66435
G1 X145.465 Y127.416 E3.68628
G1 X145.073 Y127.18 E3.70765
G1 X144.573 Y127.113 E3.73119
G1 X144.106 Y127.259 E3.75401
G1 X143.762 Y127.525 E3.7743
G1 X143.549 Y127.869 E3.79318
G1 X143.472 Y128.249 E3.81128
G1 X143.451 Y129.911 E3.88879
G1 X143.465 Y132.954 E4.03079
G1 X142.968 Y132.716 E4.05654
G1 X142.218 Y132.635 E4.09171
G1 X142.405 Y132.097 E4.11828
G1 X142.405 Y131.684 E4.13754
G1 X142.293 Y131.336 E4.1546
G1 X142.017 Y130.945 E4.1769
G1 X142.134 Y130.818 E4.18497
G1 X142.288 Y130.457 E4.20327
G1 X142.337 Y130.124 E4.21898
G1 X142.337 Y128.413 E4.29879
G1 X142.277 Y127.961 E4.32006
G1 X142.158 Y127.669 E4.33479
G1 X141.976 Y127.402 E4.34986
G1 X141.765 Y127.203 E4.36339
G1 X141.443 Y127.006 E4.38099
G1 X140.953 Y126.889 E4.40452
G1 X140.029 Y126.853 E4.44766
G1 X138.94 Y126.853 E4.49846
G1 X136.039 Y126.894 E4.63379
G1 X135.356 Y126.961 E4.66581
G1 X134.951 Y127.119 E4.68609
G1 X134.63 Y127.399 E4.70597
G1 X134.457 Y127.711 E4.72262
G1 X134.379 Y128.058 E4.73918
G1 X134.41 Y128.429 E4.75658
G1 X134.562 Y128.778 E4.77434
G1 X134.891 Y129.122 E4.79651
G1 X135.137 Y129.25 E4.80948
G1 X134.834 Y129.712 E4.83527
G1 X134.751 Y130.434 E4.86918
G1 X134.757 Y131.903 E4.93771
G1 X134.812 Y132.294 E4.95614
G1 X134.986 Y132.658 E4.97494
G1 X134.461 Y132.677 E4.99944
G1 X134.355 Y132.43 E5.012
G1 X134.021 Y132.081 E5.03453
G1 X133.55 Y131.904 E5.05801
G1 X132.901 Y131.908 E5.0883
G1 X133.065 Y131.571 E5.10575
G1 X133.123 Y131.22 E5.12236
G1 X133.064 Y130.698 E5.14686
G1 X132.865 Y130.339 E5.16601
G1 X132.604 Y130.089 E5.18288
G1 X132.156 Y129.896 E5.20565
G1 X130.62 Y129.871 E5.27733
G1 X127.96 Y129.89 E5.40145
G1 X127.976 Y127.884 E5.49505
G1 X127.824 Y127.45 E5.51651
G1 X127.507 Y127.112 E5.53809
G1 X127.099 Y126.909 E5.55937
G1 X126.722 Y126.875 E5.57701
G1 X126.346 Y126.933 E5.59475
G1 X125.913 Y127.125 E5.61686
G1 X125.6 Y127.477 E5.63884
G1 X125.468 Y127.888 E5.65897
G1 X125.429 Y129.507 E5.73454
G1 X125.433 Y131.031 E5.80566
G1 X125.489 Y131.467 E5.82618
G1 X125.673 Y131.909 E5.84848
G1 X125.284 Y131.907 E5.86662
G1 X124.837 Y131.985 E5.88778
G1 X124.386 Y132.233 E5.91183
G1 X124.085 Y132.673 E5.93669
G1 X124.075 Y132.744 E5.94005
G1 X124.396 Y132.551 F15000
;TYPE:External perimeter
G1 F2400
G1 X124.622 Y132.881
G1 X124.581 Y133.178 E5.95407
G1 X124.613 Y133.409 E5.96495
G1 X124.731 Y133.616 E5.97606
G1 X124.922 Y133.759 E5.98718
G1 X125.128 Y133.818 E5.9972
G1 X128.514 Y133.822 E6.15516
G1 X128.514 Y134.727 E6.19739
G1 X126.592 Y134.732 E6.28705
G1 X126.422 Y134.789 E6.29543
G1 X126.248 Y134.92 E6.30559
G1 X126.121 Y135.163 E6.31838
G1 X126.106 Y135.541 E6.33605
G1 X126.194 Y135.807 E6.34909
G1 X126.32 Y135.943 E6.35775
G1 X126.496 Y136.04 E6.36712
G1 X126.702 Y136.084 E6.37696
G1 X130.123 Y136.052 E6.53656
G1 X130.89 Y136.077 E6.57236
G1 X130.833 Y138.302 E6.67619
G1 X130.913 Y138.533 E6.68764
G1 X131.091 Y138.714 E6.69946
G1 X131.283 Y138.814 E6.70955
G1 X131.538 Y138.851 E6.72159
G1 X131.811 Y138.79 E6.73464
G1 X132.042 Y138.607 E6.74837
G1 X132.171 Y138.388 E6.76024
G1 X132.231 Y138.075 E6.77511
