; generated by PrusaSlicer 2.6.0-beta2+win64 on 2023-06-11 at 13:41:00 UTC

; 

; external perimeters extrusion width = 0.45mm
; perimeters extrusion width = 0.45mm
; infill extrusion width = 0.45mm
; solid infill extrusion width = 0.45mm
; top infill extrusion width = 0.40mm
; support material extrusion width = 0.40mm

M190 S70 ; set bed temperature and wait for it to be reached
M104 S275 ; set temperature
;TYPE:Custom
G28 ; home all axes
G1 Z5 F5000 ; lift nozzle
M109 S275 ; set temperature and wait for it to be reached
G21 ; set units to millimeters
G90 ; use absolute coordinates
M82 ; use absolute distances for extrusion
G92 E0
; Filament gcode
M107
;LAYER_CHANGE
;Z:0.2
;HEIGHT:0.2
G1 E-2 F600
G92 E0
G1 Z.2 F18000
G1 X95.77 Y110.543
G1 E2 F600
;TYPE:Skirt/Brim
;WIDTH:0.45
G1 F2400
G1 X97.972 Y109.6 E2.08108
G1 X99.674 Y109.397 E2.1391
G1 X190.02 Y109.397 E5.1972
G1 X192.382 Y109.794 E5.27827
G1 X194.484 Y110.942 E5.35934
G1 X196.095 Y112.715 E5.44043
G1 X197.038 Y114.916 E5.52148
G1 X197.241 Y116.618 E5.5795
G1 X197.241 Y136.618 E6.25648
G1 X196.844 Y138.98 E6.33755
G1 X195.696 Y141.082 E6.41862
G1 X193.923 Y142.693 E6.49971
G1 X191.721 Y143.636 E6.58079
G1 X190.02 Y143.839 E6.63878
G1 X99.674 Y143.839 E9.69688
G1 X97.312 Y143.442 E9.77795
G1 X95.21 Y142.294 E9.85902
G1 X93.599 Y140.522 E9.94008
G1 X92.656 Y138.32 E10.02116
G1 X92.453 Y136.618 E10.07918
G1 X92.453 Y116.618 E10.75616
G1 X92.85 Y114.256 E10.83723
G1 X93.998 Y112.154 E10.9183
G1 X95.726 Y110.583 E10.99735
G1 X96.009 Y110.911 F18000
G1 F2400
G1 X96.161 Y110.779 E11.00416
G1 X98.33 Y109.938 E11.0829
G1 X99.674 Y109.804 E11.12862
G1 X190.02 Y109.804 E14.18672
G1 X192.312 Y110.201 E14.26546
G1 X194.337 Y111.346 E14.3442
G1 X195.859 Y113.105 E14.42293
G1 X196.7 Y115.274 E14.50167
G1 X196.834 Y116.618 E14.54739
G1 X196.834 Y136.618 E15.22437
G1 X196.437 Y138.91 E15.30311
G1 X195.292 Y140.935 E15.38185
G1 X193.533 Y142.457 E15.46058
G1 X191.364 Y143.298 E15.53932
G1 X190.02 Y143.432 E15.58504
G1 X99.674 Y143.432 E18.64314
G1 X97.382 Y143.035 E18.72188
G1 X95.357 Y141.89 E18.80062
G1 X93.835 Y140.131 E18.87935
G1 X92.994 Y137.962 E18.95809
G1 X92.86 Y136.618 E19.00381
G1 X92.86 Y116.618 E19.68079
G1 X93.257 Y114.326 E19.75953
G1 X94.402 Y112.301 E19.83827
G1 X95.964 Y110.95 E19.90817
G1 X96.236 Y111.282 F18000
G1 F2400
G1 X96.55 Y111.024 E19.92193
G1 X99.674 Y110.211 E20.0312
G1 X190.02 Y110.211 E23.0893
G1 X192.24 Y110.608 E23.16564
G1 X194.185 Y111.749 E23.24197
G1 X195.614 Y113.494 E23.31831
G1 X196.427 Y116.618 E23.42758
G1 X196.427 Y136.618 E24.10456
G1 X196.03 Y138.838 E24.1809
G1 X194.889 Y140.783 E24.25723
G1 X193.144 Y142.212 E24.33357
G1 X190.02 Y143.025 E24.44284
G1 X99.674 Y143.025 E27.50094
G1 X97.454 Y142.628 E27.57728
G1 X95.509 Y141.487 E27.65361
G1 X94.08 Y139.742 E27.72995
G1 X93.267 Y136.618 E27.83922
G1 X93.267 Y116.618 E28.5162
G1 X93.664 Y114.398 E28.59254
G1 X94.805 Y112.453 E28.66887
G1 X96.189 Y111.32 E28.72941
;WIPE_START
G1 F14400
G1 X96.55 Y111.024 E28.71093
G1 X99.674 Y110.211 E28.58315
G1 X146.505 Y110.211 E26.72941
;WIPE_END
G92 E0
G1 X139.25 Y129.689 F18000
G1 E2 F600
;TYPE:Perimeter
;WIDTH:0.625107
G1 F2400
G1 X138.391 Y129.685 E2.04158
;WIDTH:0.623805
G1 X138.391 Y129.107 E2.0695
;WIDTH:0.625107
G1 X139.278 Y129.104 E2.11244
G1 X139.253 Y129.629 E2.13788
G1 X139.724 Y130.487 F18000
;TYPE:External perimeter
;WIDTH:0.627408
G1 F2400
G1 X139.666 Y130.424 E2.14204
;WIDTH:0.587037
G1 X139.607 Y130.36 E2.14598
;WIDTH:0.546665
G1 X139.548 Y130.296 E2.14963
;WIDTH:0.506293
G1 X139.407 Y130.24 E2.15548
;WIDTH:0.478146
G1 X139.265 Y130.183 E2.16102
;WIDTH:0.449999
G1 X137.897 Y130.176 E2.20733
G1 X137.897 Y128.615 E2.26017
G1 X139.351 Y128.609 E2.30939
;WIDTH:0.492637
G1 X139.646 Y128.485 E2.32136
;WIDTH:0.527306
G1 X139.71 Y128.416 E2.32515
;WIDTH:0.561975
G1 X139.774 Y128.346 E2.32924
;WIDTH:0.596644
G1 X139.838 Y128.277 E2.33357
G1 X139.835 Y128.285 E2.33396
;WIDTH:0.59368
G1 X139.824 Y128.454 E2.34172
;WIDTH:0.545787
G1 X139.813 Y128.623 E2.3488
;WIDTH:0.497893
G1 X139.802 Y128.792 E2.35521
;WIDTH:0.449999
G1 X139.742 Y129.465 E2.37808
G1 X139.753 Y129.947 E2.3944
;WIDTH:0.494352
G1 X139.746 Y130.082 E2.39947
;WIDTH:0.538704
G1 X139.739 Y130.217 E2.40504
;WIDTH:0.583056
G1 X139.732 Y130.352 E2.41111
;WIDTH:0.627408
G1 X139.728 Y130.428 E2.41481
G1 X139.772 Y130.822 F18000
;WIDTH:0.63402
G1 F2400
G1 X139.724 Y130.487 E2.43144
;WIPE_START
G1 F14400
G1 X139.772 Y130.822 E2.41804
;WIPE_END
G1 E.43144 F600
G92 E0
G1 X156.907 Y128.217 F18000
G1 E2 F600
;TYPE:Perimeter
;WIDTH:0.449999
G1 F2400
G1 X156.443 Y128.275 E2.01583
G1 X155.445 Y128.258 E2.04962
;WIDTH:0.41967
G1 X155.082 Y128.243 E2.061
;WIDTH:0.38934
G1 X154.554 Y128.23 E2.07621
;WIDTH:0.36729
G1 X153.51 Y128.229 E2.10437
G1 X153.507 Y128.554 E2.11314
G1 X154.553 Y128.554 E2.14135
;WIDTH:0.38934
G1 X155.033 Y128.582 E2.1552
;WIDTH:0.428001
G1 X155.281 Y128.634 E2.16331
;WIDTH:0.449999
G1 X155.57 Y128.805 E2.17468
G1 X155.835 Y129.161 E2.1897
G1 X155.938 Y129.737 E2.20951
G1 X155.895 Y131.681 E2.27533
G1 X155.902 Y132.213 E2.29334
G1 X155.804 Y132.656 E2.3087
G1 X155.693 Y132.854 E2.31638
G1 X155.498 Y133.062 E2.32603
G1 X155.118 Y133.259 E2.34052
G1 X154.778 Y133.28 E2.35205
G1 X154.543 Y133.235 E2.36015
G1 X154.253 Y133.091 E2.37111
G1 X153.974 Y132.798 E2.3848
G1 X153.863 Y132.442 E2.39742
G1 X153.846 Y132.279 E2.40297
G1 X153.897 Y130.513 E2.46277
G1 X153.456 Y130.499 E2.4777
G1 X150.076 Y130.531 E2.59211
G1 X149.736 Y130.46 E2.60387
G1 X149.504 Y130.337 E2.61276
G1 X149.251 Y130.067 E2.62528
G1 X149.123 Y129.627 E2.64079
G1 X149.155 Y129.203 E2.65518
G1 X149.273 Y128.941 E2.66491
G1 X149.504 Y128.698 E2.67626
G1 X149.684 Y128.633 E2.68274
;WIDTH:0.414747
G1 X149.865 Y128.568 E2.68869
;WIDTH:0.379494
G1 X149.961 Y128.562 E2.69138
;WIDTH:0.373906
G1 X151.407 Y128.556 E2.73118
;WIDTH:0.369966
G1 X151.57 Y128.556 E2.73561
G1 X151.57 Y128.229 E2.7445
G1 X151.407 Y128.229 E2.74893
;WIDTH:0.373906
G1 X149.96 Y128.231 E2.78875
;WIDTH:0.411953
G1 X149.673 Y128.25 E2.79758
;WIDTH:0.449999
G1 X149.387 Y128.269 E2.80728
G1 X148.593 Y128.269 E2.83416
G1 X148.243 Y128.214 E2.84615
G1 X147.83 Y127.933 E2.86306
G1 X147.681 Y127.694 E2.87259
G1 X147.607 Y127.373 E2.88374
G1 X147.642 Y126.986 E2.89689
G1 X147.781 Y126.675 E2.90842
G1 X147.946 Y126.522 E2.91604
G1 X148.307 Y126.317 E2.93009
G1 X148.829 Y126.252 E2.9479
;WIDTH:0.451889
G1 X149.536 Y126.255 E2.97194
;WIDTH:0.47041
G1 X149.895 Y126.248 E2.9847
G1 X149.56 Y126.13 E2.99733
;WIDTH:0.451889
G1 X149.283 Y125.909 E3.00938
;WIDTH:0.449999
G1 X149.108 Y125.641 E3.02021
G1 X149.012 Y125.133 E3.03771
G1 X149.006 Y123.632 E3.08852
G1 X149.041 Y122.157 E3.13846
G1 X149.122 Y121.805 E3.15069
G1 X149.301 Y121.544 E3.1614
G1 X149.427 Y121.431 E3.16713
G1 X149.923 Y121.254 E3.18496
G1 X150.174 Y121.233 E3.19349
G1 X150.533 Y121.325 E3.20603
G1 X150.797 Y121.503 E3.21681
G1 X151.054 Y121.932 E3.23374
G1 X151.091 Y122.147 E3.24112
G1 X151.074 Y124.24 E3.31197
G1 X153.959 Y124.219 E3.40963
G1 X155.333 Y124.241 E3.45614
G1 X155.605 Y124.309 E3.46563
G1 X155.867 Y124.447 E3.47565
G1 X156.097 Y124.729 E3.48797
G1 X156.201 Y125.005 E3.49795
G1 X156.225 Y125.406 E3.51155
G1 X156.141 Y125.7 E3.5219
G1 X155.944 Y125.991 E3.53379
;WIDTH:0.491293
G1 X155.55 Y126.238 E3.55113
G1 X156.551 Y126.253 E3.58845
;WIDTH:0.449999
G1 X156.996 Y126.298 E3.60359
G1 X157.258 Y126.449 E3.61383
G1 X157.53 Y126.733 E3.62714
G1 X157.663 Y127.06 E3.63909
G1 X158.355 Y127.006 E3.66258
;WIDTH:0.48628
G1 X159.062 Y126.987 E3.68865
G1 X158.773 Y126.842 E3.70057
;WIDTH:0.4542
G1 X158.531 Y126.624 E3.71171
;WIDTH:0.449999
G1 X158.417 Y126.386 E3.72064
G1 X158.335 Y125.93 E3.73632
G1 X158.329 Y124.601 E3.78131
G1 X158.383 Y124.076 E3.79917
G1 X158.481 Y123.785 E3.80956
G1 X158.642 Y123.57 E3.81865
;WIDTH:0.471593
G1 X158.976 Y123.337 E3.83317
;WIDTH:0.493672
G1 X159.155 Y123.265 E3.8404
G1 X158.757 Y123.209 E3.85546
;WIDTH:0.449999
G1 X158.415 Y123.067 E3.86799
G1 X158.14 Y122.798 E3.88101
G1 X158.018 Y122.529 E3.89101
G1 X157.965 Y122.217 E3.90172
G1 X158.07 Y121.841 E3.91493
G1 X158.192 Y121.642 E3.92283
G1 X158.597 Y121.362 E3.9395
G1 X159.089 Y121.265 E3.95647
G1 X159.712 Y121.229 E3.97759
G1 X163.36 Y121.201 E4.10107
G1 X164.211 Y121.234 E4.1299
G1 X164.61 Y121.319 E4.14371
G1 X165.012 Y121.55 E4.1594
G1 X165.183 Y121.733 E4.16788
G1 X165.379 Y122.092 E4.18172
G1 X165.454 Y122.587 E4.19867
G1 X165.453 Y124.184 E4.25273
G1 X165.419 Y124.455 E4.26197
G1 X165.329 Y124.68 E4.27017
G1 X165.126 Y124.97 E4.28215
G1 X164.873 Y125.124 E4.29218
G1 X165.155 Y125.243 E4.30254
G1 X165.362 Y125.481 E4.31322
G1 X165.462 Y125.686 E4.32094
G1 X165.515 Y126.056 E4.33359
G1 X165.475 Y126.291 E4.34166
G1 X165.308 Y126.618 E4.35409
G1 X165.177 Y126.77 E4.36088
G1 X164.889 Y126.953 E4.37243
;WIDTH:0.441545
G1 X164.69 Y127.017 E4.37936
;WIDTH:0.449999
G1 X165.285 Y127.005 E4.3995
G1 X166.066 Y127.043 E4.42597
G1 X166.342 Y127.104 E4.43554
G1 X166.498 Y127.178 E4.44138
G1 X166.755 Y127.406 E4.45301
;WIDTH:0.485089
G1 X166.832 Y127.549 E4.45898
;WIDTH:0.520179
G1 X166.909 Y127.691 E4.46539
;WIDTH:0.555268
G1 X166.987 Y127.834 E4.47233
G1 X167.003 Y127.664 E4.4796
;WIDTH:0.520179
G1 X167.02 Y127.495 E4.48634
;WIDTH:0.485089
G1 X167.036 Y127.325 E4.49262
;WIDTH:0.449999
G1 X167.051 Y122.422 E4.65858
G1 X167.101 Y122.183 E4.66684
G1 X167.27 Y121.834 E4.67997
G1 X167.511 Y121.642 E4.6904
G1 X167.928 Y121.484 E4.70549
G1 X168.258 Y121.514 E4.71671
G1 X168.497 Y121.611 E4.72544
G1 X168.759 Y121.832 E4.73704
G1 X168.947 Y122.159 E4.74981
G1 X169.01 Y122.475 E4.76072
G1 X169.001 Y126.002 E4.8801
G1 X170.588 Y126.005 E4.93382
G1 X170.97 Y126.108 E4.94721
G1 X171.233 Y126.33 E4.95886
G1 X171.384 Y126.618 E4.96987
G1 X171.442 Y126.894 E4.97942
;WIDTH:0.460065
G1 X171.442 Y127.173 E4.9891
;WIDTH:0.48221
G1 X171.403 Y127.423 E4.99834
G1 X171.75 Y126.956 E5.01959
;WIDTH:0.449999
G1 X172.137 Y126.454 E5.04105
G1 X172.684 Y125.816 E5.0695
G1 X173.102 Y125.377 E5.09002
G1 X173.686 Y124.811 E5.11755
G1 X174.222 Y124.344 E5.14161
G1 X174.434 Y124.225 E5.14984
G1 X174.974 Y124.08 E5.16877
G1 X175.355 Y124.162 E5.18196
G1 X175.63 Y124.379 E5.19382
G1 X175.835 Y124.731 E5.20761
G1 X175.89 Y125.018 E5.2175
G1 X175.806 Y125.398 E5.23067
G1 X175.514 Y125.768 E5.24662
G1 X175.055 Y126.18 E5.2675
G1 X174.651 Y126.576 E5.28665
G1 X174.258 Y126.995 E5.30609
G1 X173.605 Y127.794 E5.34102
G1 X173.212 Y128.358 E5.36429
G1 X172.944 Y128.788 E5.38144
G1 X172.686 Y129.256 E5.39953
G1 X172.273 Y130.151 E5.43289
G1 X172.062 Y130.774 E5.45515
G1 X174.748 Y130.781 E5.54607
G1 X174.996 Y130.835 E5.55466
G1 X175.279 Y130.981 E5.56544
G1 X175.565 Y131.346 E5.58114
G1 X175.658 Y131.71 E5.59386
G1 X175.641 Y131.992 E5.60342
G1 X175.529 Y132.308 E5.61477
G1 X175.307 Y132.562 E5.62619
G1 X175.019 Y132.726 E5.63741
G1 X174.679 Y132.792 E5.64913
G1 X170.961 Y132.793 E5.77498
G1 X170.527 Y132.716 E5.7899
G1 X170.109 Y132.453 E5.80662
G1 X169.89 Y132.078 E5.82132
G1 X169.827 Y131.789 E5.83133
G1 X169.843 Y131.227 E5.85036
G1 X169.877 Y131.024 E5.85733
G1 X169.009 Y131.023 E5.88671
G1 X169.005 Y132.598 E5.94002
G1 X168.943 Y132.864 E5.94927
G1 X168.743 Y133.231 E5.96342
G1 X168.496 Y133.421 E5.97397
G1 X168.123 Y133.535 E5.98717
G1 X167.764 Y133.504 E5.99937
G1 X167.472 Y133.352 E6.01051
G1 X167.15 Y133.009 E6.02643
G1 X167.055 Y132.709 E6.03708
G1 X167.046 Y129.069 E6.16029
;WIDTH:0.47079
G1 X167.033 Y128.51 E6.18018
;WIDTH:0.512348
G1 X167.011 Y128.353 E6.18637
;WIDTH:0.553906
G1 X166.989 Y128.195 E6.19315
G1 X166.921 Y128.337 E6.19984
;WIDTH:0.512348
G1 X166.853 Y128.479 E6.20599
;WIDTH:0.47079
G1 X166.572 Y128.795 E6.22103
;WIDTH:0.449999
G1 X166.348 Y128.923 E6.22976
G1 X165.977 Y129.011 E6.24267
G1 X164.199 Y129.012 E6.30285
G1 X164.625 Y129.371 E6.32171
G1 X164.984 Y129.916 E6.3438
G1 X165.173 Y130.605 E6.36798
G1 X165.178 Y131.33 E6.39252
G1 X164.978 Y132.039 E6.41746
G1 X164.759 Y132.388 E6.43141
G1 X164.502 Y132.701 E6.44512
G1 X164.072 Y133.03 E6.46345
G1 X163.578 Y133.275 E6.48211
G1 X163.19 Y133.396 E6.49587
G1 X162.522 Y133.516 E6.51884
G1 X161.803 Y133.543 E6.54319
G1 X160.855 Y133.453 E6.57542
G1 X160.292 Y133.303 E6.59514
G1 X159.634 Y132.947 E6.62046
G1 X159.249 Y132.586 E6.63832
G1 X158.961 Y132.152 E6.65595
G1 X158.788 Y131.667 E6.67338
G1 X158.717 Y131.22 E6.6887
G1 X158.714 Y130.688 E6.70671
G1 X158.801 Y130.188 E6.72389
G1 X159.017 Y129.692 E6.7422
G1 X159.311 Y129.322 E6.7582
G1 X159.722 Y129.008 E6.77571
G1 X157.843 Y129.023 E6.83931
G1 X157.405 Y128.919 E6.85455
G1 X157.168 Y128.734 E6.86473
G1 X157.004 Y128.476 E6.87508
G1 X156.928 Y128.274 E6.88239
;WIPE_START
G1 F14400
G1 X156.443 Y128.275 E6.86319
G1 X155.445 Y128.258 E6.82368
G1 X155.082 Y128.243 E6.8093
G1 X154.554 Y128.23 E6.78839
G1 X153.51 Y128.229 E6.74706
G1 X153.507 Y128.554 E6.73419
G1 X154.553 Y128.554 E6.69279
G1 X155.033 Y128.582 E6.67376
G1 X155.281 Y128.634 E6.66373
G1 X155.57 Y128.805 E6.65044
G1 X155.835 Y129.161 E6.63287
G1 X155.938 Y129.737 E6.60971
G1 X155.895 Y131.681 E6.53274
G1 X155.902 Y132.213 E6.51168
G1 X155.804 Y132.656 E6.49372
G1 X155.693 Y132.854 E6.48473
G1 X155.498 Y133.062 E6.47344
G1 X155.118 Y133.259 E6.4565
G1 X154.778 Y133.28 E6.44302
G1 X154.543 Y133.235 E6.43355
G1 X154.253 Y133.091 E6.42073
G1 X153.974 Y132.798 E6.40472
G1 X153.863 Y132.442 E6.38996
G1 X153.846 Y132.279 E6.38347
G1 X153.897 Y130.513 E6.31354
G1 X153.456 Y130.499 E6.29607
G1 X150.076 Y130.531 E6.16227
G1 X149.736 Y130.46 E6.14852
G1 X149.504 Y130.337 E6.13813
G1 X149.251 Y130.067 E6.12348
G1 X149.123 Y129.627 E6.10534
G1 X149.155 Y129.203 E6.08851
G1 X149.273 Y128.941 E6.07714
G1 X149.504 Y128.698 E6.06387
G1 X149.684 Y128.633 E6.05629
G1 X149.865 Y128.568 E6.04868
G1 X149.961 Y128.562 E6.04487
G1 X151.407 Y128.556 E5.98763
G1 X151.57 Y128.556 E5.98118
G1 X151.57 Y128.229 E5.96824
G1 X151.407 Y128.229 E5.96179
G1 X149.96 Y128.231 E5.90451
G1 X149.673 Y128.25 E5.89312
G1 X149.387 Y128.269 E5.88177
G1 X148.593 Y128.269 E5.85034
G1 X148.243 Y128.214 E5.83632
G1 X147.83 Y127.933 E5.81655
G1 X147.681 Y127.694 E5.8054
G1 X147.607 Y127.373 E5.79236
G1 X147.642 Y126.986 E5.77698
G1 X147.781 Y126.675 E5.7635
G1 X147.946 Y126.522 E5.75459
G1 X148.307 Y126.317 E5.73816
G1 X148.829 Y126.252 E5.71734
G1 X149.536 Y126.255 E5.68935
G1 X149.895 Y126.248 E5.67514
G1 X149.56 Y126.13 E5.66108
G1 X149.283 Y125.909 E5.64705
G1 X149.108 Y125.641 E5.63438
G1 X149.012 Y125.133 E5.61392
G1 X149.006 Y123.632 E5.5545
G1 X149.041 Y122.157 E5.4961
G1 X149.122 Y121.805 E5.4818
G1 X149.301 Y121.544 E5.46927
G1 X149.427 Y121.431 E5.46257
G1 X149.923 Y121.254 E5.44172
G1 X150.174 Y121.233 E5.43175
G1 X150.533 Y121.325 E5.41708
G1 X150.797 Y121.503 E5.40448
G1 X151.054 Y121.932 E5.38468
G1 X151.091 Y122.147 E5.37604
G1 X151.074 Y124.24 E5.29319
G1 X153.959 Y124.219 E5.17899
G1 X155.333 Y124.241 E5.1246
G1 X155.605 Y124.309 E5.1135
G1 X155.867 Y124.447 E5.10178
G1 X156.097 Y124.729 E5.08738
G1 X156.201 Y125.005 E5.07571
G1 X156.225 Y125.406 E5.05981
G1 X156.141 Y125.7 E5.04771
G1 X155.944 Y125.991 E5.0338
G1 X155.55 Y126.238 E5.01539
G1 X156.551 Y126.253 E4.97576
G1 X156.996 Y126.298 E4.95806
G1 X157.258 Y126.449 E4.94609
G1 X157.53 Y126.733 E4.93052
G1 X157.663 Y127.06 E4.91655
G1 X158.355 Y127.006 E4.88908
G1 X158.524 Y127.001 E4.88239
;WIPE_END
G92 E0
G1 X150.687 Y124.65 F18000
G1 E2 F600
;TYPE:External perimeter
G1 F2400
G1 X153.962 Y124.626 E2.11086
G1 X155.327 Y124.648 E2.15707
G1 X155.619 Y124.77 E2.16778
G1 X155.79 Y125.019 E2.178
G1 X155.816 Y125.377 E2.19015
G1 X155.687 Y125.676 E2.20117
G1 X155.473 Y125.817 E2.20984
G1 X155.253 Y125.853 E2.21739
G1 X150.148 Y125.854 E2.39019
G1 X149.885 Y125.82 E2.39917
G1 X149.71 Y125.751 E2.40554
G1 X149.49 Y125.492 E2.41704
G1 X149.418 Y125.093 E2.43076
G1 X149.414 Y123.633 E2.48018
G1 X149.448 Y122.166 E2.52985
G1 X149.532 Y121.902 E2.53923
G1 X149.711 Y121.742 E2.54736
G1 X150.123 Y121.637 E2.56175
G1 X150.332 Y121.679 E2.56897
G1 X150.536 Y121.828 E2.57752
G1 X150.684 Y122.143 E2.5893
G1 X150.676 Y124.591 E2.67216
