; generated by PrusaSlicer 2.6.0-beta2+win64 on 2023-06-05 at 02:58:28 UTC

; 

; external perimeters extrusion width = 0.45mm
; perimeters extrusion width = 0.45mm
; infill extrusion width = 0.45mm
; solid infill extrusion width = 0.45mm
; top infill extrusion width = 0.40mm
; support material extrusion width = 0.40mm

M190 S70 ; set bed temperature and wait for it to be reached
M104 S275 ; set temperature
;TYPE:Custom
G28 ; home all axes
G1 Z5 F5000 ; lift nozzle
M109 S275 ; set temperature and wait for it to be reached
G21 ; set units to millimeters
G90 ; use absolute coordinates
M82 ; use absolute distances for extrusion
G92 E0
; Filament gcode
M107
;LAYER_CHANGE
;Z:0.2
;HEIGHT:0.2
G1 E-2 F600
G92 E0
G1 Z.2 F12000
G1 X77.797 Y61.443
G1 E2 F600
;TYPE:Skirt/Brim
;WIDTH:0.45
G1 F2400
G1 X79.569 Y59.832 E2.08106
G1 X81.771 Y58.889 E2.16214
G1 X83.473 Y58.686 E2.22016
G1 X173.819 Y58.686 E5.27826
G1 X176.181 Y59.083 E5.35933
G1 X178.283 Y60.231 E5.4404
G1 X179.894 Y62.003 E5.52146
G1 X180.837 Y64.205 E5.60254
G1 X181.04 Y65.907 E5.66056
G1 X181.04 Y85.907 E6.33754
G1 X180.643 Y88.269 E6.41861
G1 X179.495 Y90.371 E6.49968
G1 X177.722 Y91.982 E6.58077
G1 X175.52 Y92.925 E6.66185
G1 X173.819 Y93.128 E6.71984
G1 X83.473 Y93.128 E9.77794
G1 X81.111 Y92.731 E9.85901
G1 X79.009 Y91.583 E9.94008
G1 X77.398 Y89.811 E10.02114
G1 X76.455 Y87.609 E10.10222
G1 X76.252 Y85.907 E10.16024
G1 X76.252 Y65.907 E10.83722
G1 X76.649 Y63.545 E10.91829
G1 X77.768 Y61.495 E10.99734
G1 X78.136 Y61.704 F12000
G1 F2400
G1 X78.201 Y61.59 E11.00178
G1 X79.96 Y60.068 E11.08051
G1 X82.129 Y59.227 E11.15925
G1 X83.473 Y59.093 E11.20497
G1 X173.819 Y59.093 E14.26307
G1 X176.111 Y59.49 E14.34181
G1 X178.136 Y60.635 E14.42055
G1 X179.658 Y62.394 E14.49928
G1 X180.499 Y64.563 E14.57802
G1 X180.633 Y65.907 E14.62374
G1 X180.633 Y85.907 E15.30072
G1 X180.236 Y88.199 E15.37946
G1 X179.091 Y90.224 E15.4582
G1 X177.332 Y91.746 E15.53693
G1 X175.163 Y92.587 E15.61567
G1 X173.819 Y92.721 E15.66139
G1 X83.473 Y92.721 E18.71949
G1 X81.181 Y92.324 E18.79823
G1 X79.156 Y91.179 E18.87697
G1 X77.634 Y89.42 E18.9557
G1 X76.793 Y87.251 E19.03444
G1 X76.659 Y85.907 E19.08016
G1 X76.659 Y65.907 E19.75714
G1 X77.056 Y63.615 E19.83588
G1 X78.107 Y61.756 E19.90817
G1 X78.471 Y61.969 F12000
G1 F2400
G1 X78.604 Y61.742 E19.91708
G1 X80.349 Y60.313 E19.99342
G1 X83.473 Y59.5 E20.10269
G1 X173.819 Y59.5 E23.16079
G1 X176.039 Y59.897 E23.23713
G1 X177.984 Y61.038 E23.31346
G1 X179.412 Y62.783 E23.38978
G1 X180.226 Y65.907 E23.49905
G1 X180.226 Y85.907 E24.17603
G1 X179.829 Y88.127 E24.25237
G1 X178.687 Y90.072 E24.32872
G1 X176.943 Y91.501 E24.40504
G1 X173.819 Y92.314 E24.51431
G1 X83.473 Y92.314 E27.57241
G1 X81.253 Y91.917 E27.64875
G1 X79.308 Y90.776 E27.72508
G1 X77.879 Y89.031 E27.80142
G1 X77.066 Y85.907 E27.91069
G1 X77.066 Y65.907 E28.58767
G1 X77.463 Y63.687 E28.66401
G1 X78.44 Y62.021 E28.72938
;WIPE_START
G1 F9600
G1 X78.604 Y61.742 E28.71016
G1 X80.349 Y60.313 E28.57624
G1 X83.473 Y59.5 E28.38457
G1 X111.35 Y59.5 E26.72938
;WIPE_END
G92 E0
G1 X123.049 Y78.977 F12000
G1 E2 F600
;TYPE:Perimeter
;WIDTH:0.625107
G1 F2400
G1 X122.19 Y78.974 E2.04158
;WIDTH:0.623805
G1 X122.19 Y78.395 E2.06955
;WIDTH:0.625107
G1 X123.077 Y78.392 E2.11249
G1 X123.052 Y78.917 E2.13793
G1 X123.523 Y79.776 F12000
;TYPE:External perimeter
;WIDTH:0.627408
G1 F2400
G1 X123.465 Y79.712 E2.14213
;WIDTH:0.587037
G1 X123.406 Y79.649 E2.14604
;WIDTH:0.546665
G1 X123.347 Y79.585 E2.14969
;WIDTH:0.506293
G1 X123.205 Y79.528 E2.15559
;WIDTH:0.478146
G1 X123.064 Y79.472 E2.16108
;WIDTH:0.449999
G1 X121.696 Y79.465 E2.20739
G1 X121.696 Y77.904 E2.26023
G1 X123.15 Y77.897 E2.30945
;WIDTH:0.492637
G1 X123.445 Y77.774 E2.3214
;WIDTH:0.527306
G1 X123.509 Y77.705 E2.32519
;WIDTH:0.561975
G1 X123.573 Y77.635 E2.32928
;WIDTH:0.596644
G1 X123.637 Y77.566 E2.33361
G1 X123.634 Y77.573 E2.33396
;WIDTH:0.59368
G1 X123.623 Y77.742 E2.34172
;WIDTH:0.545787
G1 X123.612 Y77.911 E2.3488
;WIDTH:0.497893
G1 X123.601 Y78.081 E2.35524
;WIDTH:0.449999
G1 X123.541 Y78.754 E2.37811
G1 X123.552 Y79.235 E2.3944
;WIDTH:0.494352
G1 X123.545 Y79.371 E2.39951
;WIDTH:0.538704
G1 X123.538 Y79.506 E2.40508
;WIDTH:0.583056
G1 X123.53 Y79.641 E2.41115
;WIDTH:0.627408
G1 X123.526 Y79.716 E2.4148
G1 X123.571 Y80.111 F12000
;WIDTH:0.63402
G1 F2400
G1 X123.523 Y79.776 E2.43143
;WIPE_START
G1 F9600
G1 X123.571 Y80.111 E2.41134
;WIPE_END
G1 E.43143 F600
G92 E0
G1 X140.706 Y77.506 F12000
G1 E2 F600
;TYPE:Perimeter
;WIDTH:0.449999
G1 F2400
G1 X140.242 Y77.564 E2.01583
G1 X139.244 Y77.547 E2.04962
;WIDTH:0.41967
G1 X138.881 Y77.531 E2.061
;WIDTH:0.38934
G1 X138.353 Y77.519 E2.07621
;WIDTH:0.36729
G1 X137.308 Y77.518 E2.1044
G1 X137.306 Y77.842 E2.11314
G1 X138.352 Y77.843 E2.14135
;WIDTH:0.38934
G1 X138.832 Y77.871 E2.1552
;WIDTH:0.428001
G1 X139.08 Y77.923 E2.16331
;WIDTH:0.449999
G1 X139.369 Y78.093 E2.17466
G1 X139.634 Y78.45 E2.18971
G1 X139.737 Y79.026 E2.20952
G1 X139.694 Y80.97 E2.27534
G1 X139.701 Y81.501 E2.29332
G1 X139.603 Y81.944 E2.30868
G1 X139.492 Y82.143 E2.31639
G1 X139.297 Y82.351 E2.32604
G1 X138.917 Y82.548 E2.34053
G1 X138.576 Y82.569 E2.35209
G1 X138.342 Y82.524 E2.36016
G1 X138.052 Y82.38 E2.37112
G1 X137.772 Y82.087 E2.38484
G1 X137.662 Y81.73 E2.39748
G1 X137.645 Y81.568 E2.40299
G1 X137.696 Y79.802 E2.46279
G1 X137.255 Y79.788 E2.47772
G1 X133.875 Y79.82 E2.59213
G1 X133.535 Y79.749 E2.60389
G1 X133.303 Y79.626 E2.61278
G1 X133.05 Y79.356 E2.6253
G1 X132.922 Y78.915 E2.64084
G1 X132.954 Y78.491 E2.65523
G1 X133.072 Y78.23 E2.66493
G1 X133.303 Y77.986 E2.6763
G1 X133.483 Y77.922 E2.68277
;WIDTH:0.414747
G1 X133.663 Y77.857 E2.68869
;WIDTH:0.379494
G1 X133.76 Y77.851 E2.69141
;WIDTH:0.373906
G1 X135.206 Y77.845 E2.73121
;WIDTH:0.369966
G1 X135.369 Y77.844 E2.73564
G1 X135.369 Y77.518 E2.74451
G1 X135.205 Y77.518 E2.74897
;WIDTH:0.373906
G1 X133.759 Y77.52 E2.78877
;WIDTH:0.411953
G1 X133.472 Y77.539 E2.7976
;WIDTH:0.449999
G1 X133.185 Y77.558 E2.80734
G1 X132.392 Y77.558 E2.83418
G1 X132.042 Y77.503 E2.84617
G1 X131.629 Y77.221 E2.8631
G1 X131.479 Y76.983 E2.87262
G1 X131.406 Y76.662 E2.88376
G1 X131.441 Y76.274 E2.89695
G1 X131.58 Y75.963 E2.90848
G1 X131.745 Y75.811 E2.91607
G1 X132.106 Y75.606 E2.93012
G1 X132.628 Y75.54 E2.94793
;WIDTH:0.451889
G1 X133.335 Y75.544 E2.97197
;WIDTH:0.47041
G1 X133.694 Y75.537 E2.98473
G1 X133.359 Y75.419 E2.99736
;WIDTH:0.451889
G1 X133.082 Y75.198 E3.00941
;WIDTH:0.449999
G1 X132.907 Y74.929 E3.02027
G1 X132.811 Y74.422 E3.03774
G1 X132.805 Y72.921 E3.08855
G1 X132.84 Y71.446 E3.13849
G1 X132.921 Y71.093 E3.15075
G1 X133.1 Y70.833 E3.16143
G1 X133.226 Y70.719 E3.16718
G1 X133.722 Y70.543 E3.18499
G1 X133.973 Y70.522 E3.19352
G1 X134.332 Y70.614 E3.20606
G1 X134.596 Y70.792 E3.21684
G1 X134.853 Y71.221 E3.23377
G1 X134.89 Y71.435 E3.24112
G1 X134.873 Y73.529 E3.312
G1 X137.758 Y73.508 E3.40966
G1 X139.132 Y73.53 E3.45617
G1 X139.404 Y73.598 E3.46566
G1 X139.666 Y73.736 E3.47568
G1 X139.896 Y74.018 E3.488
G1 X139.999 Y74.294 E3.49797
G1 X140.024 Y74.695 E3.51157
G1 X139.94 Y74.988 E3.52189
G1 X139.743 Y75.28 E3.53381
;WIDTH:0.491293
G1 X139.349 Y75.526 E3.55113
G1 X140.349 Y75.541 E3.58842
;WIDTH:0.449999
G1 X140.795 Y75.586 E3.60359
G1 X141.057 Y75.738 E3.61384
G1 X141.329 Y76.022 E3.62715
G1 X141.462 Y76.349 E3.6391
G1 X142.154 Y76.295 E3.66259
;WIDTH:0.48628
G1 X142.861 Y76.276 E3.68866
G1 X142.572 Y76.131 E3.70058
;WIDTH:0.4542
G1 X142.33 Y75.913 E3.71172
;WIDTH:0.449999
G1 X142.216 Y75.675 E3.72065
G1 X142.133 Y75.219 E3.73634
G1 X142.128 Y73.889 E3.78136
G1 X142.182 Y73.364 E3.79922
G1 X142.279 Y73.074 E3.80957
G1 X142.44 Y72.859 E3.81866
;WIDTH:0.471593
G1 X142.775 Y72.626 E3.83321
;WIDTH:0.493672
G1 X142.954 Y72.554 E3.84044
G1 X142.555 Y72.498 E3.85554
;WIDTH:0.449999
G1 X142.214 Y72.356 E3.86804
G1 X141.939 Y72.087 E3.88106
G1 X141.817 Y71.818 E3.89106
G1 X141.764 Y71.506 E3.90177
G1 X141.869 Y71.129 E3.91502
G1 X141.991 Y70.931 E3.92289
G1 X142.396 Y70.65 E3.93958
G1 X142.888 Y70.554 E3.95655
G1 X143.511 Y70.518 E3.97767
G1 X147.158 Y70.489 E4.10112
G1 X148.01 Y70.523 E4.12998
G1 X148.408 Y70.608 E4.14376
G1 X148.811 Y70.839 E4.15948
G1 X148.982 Y71.022 E4.16796
G1 X149.178 Y71.381 E4.1818
G1 X149.253 Y71.876 E4.19875
G1 X149.252 Y73.473 E4.25281
G1 X149.218 Y73.743 E4.26202
G1 X149.128 Y73.968 E4.27022
G1 X148.925 Y74.259 E4.28223
G1 X148.672 Y74.413 E4.29226
G1 X148.954 Y74.532 E4.30262
G1 X149.161 Y74.77 E4.3133
G1 X149.261 Y74.975 E4.32102
G1 X149.314 Y75.345 E4.33367
G1 X149.274 Y75.58 E4.34174
G1 X149.107 Y75.906 E4.35414
G1 X148.976 Y76.059 E4.36096
G1 X148.688 Y76.242 E4.37251
;WIDTH:0.441545
G1 X148.488 Y76.306 E4.37947
;WIDTH:0.449999
G1 X149.084 Y76.294 E4.39965
G1 X149.865 Y76.331 E4.42612
G1 X150.141 Y76.393 E4.4357
G1 X150.297 Y76.466 E4.44153
G1 X150.554 Y76.695 E4.45318
;WIDTH:0.485089
G1 X150.631 Y76.838 E4.45915
;WIDTH:0.520179
G1 X150.708 Y76.98 E4.46556
;WIDTH:0.555268
G1 X150.785 Y77.123 E4.47248
G1 X150.802 Y76.953 E4.47976
;WIDTH:0.520179
G1 X150.819 Y76.783 E4.48654
;WIDTH:0.485089
G1 X150.835 Y76.614 E4.49278
;WIDTH:0.449999
G1 X150.85 Y71.711 E4.65874
G1 X150.9 Y71.472 E4.667
G1 X151.069 Y71.123 E4.68013
G1 X151.31 Y70.931 E4.69056
G1 X151.727 Y70.773 E4.70565
G1 X152.057 Y70.803 E4.71687
G1 X152.296 Y70.899 E4.72559
G1 X152.558 Y71.121 E4.73721
G1 X152.746 Y71.448 E4.74998
G1 X152.809 Y71.763 E4.76085
G1 X152.8 Y75.29 E4.88023
G1 X154.387 Y75.293 E4.93395
G1 X154.769 Y75.397 E4.94735
G1 X155.032 Y75.619 E4.959
G1 X155.182 Y75.907 E4.96999
G1 X155.241 Y76.182 E4.97951
;WIDTH:0.460065
G1 X155.241 Y76.462 E4.98922
;WIDTH:0.48221
G1 X155.202 Y76.711 E4.99843
G1 X155.549 Y76.245 E5.01965
;WIDTH:0.449999
G1 X155.936 Y75.743 E5.04111
G1 X156.483 Y75.105 E5.06956
G1 X156.9 Y74.666 E5.09005
G1 X157.485 Y74.1 E5.1176
G1 X158.021 Y73.633 E5.14166
G1 X158.232 Y73.513 E5.14988
G1 X158.773 Y73.368 E5.16884
G1 X159.154 Y73.451 E5.18204
G1 X159.429 Y73.668 E5.1939
G1 X159.633 Y74.02 E5.20767
G1 X159.689 Y74.307 E5.21757
G1 X159.605 Y74.687 E5.23074
G1 X159.313 Y75.057 E5.24669
G1 X158.854 Y75.469 E5.26757
G1 X158.449 Y75.865 E5.28674
G1 X158.057 Y76.284 E5.30616
G1 X157.404 Y77.083 E5.34109
G1 X157.011 Y77.647 E5.36436
G1 X156.743 Y78.077 E5.38151
G1 X156.485 Y78.545 E5.3996
G1 X156.072 Y79.44 E5.43296
G1 X155.861 Y80.063 E5.45522
G1 X158.547 Y80.07 E5.54614
G1 X158.795 Y80.124 E5.55473
G1 X159.078 Y80.27 E5.56551
G1 X159.364 Y80.635 E5.58121
G1 X159.457 Y80.999 E5.59393
G1 X159.44 Y81.281 E5.60349
G1 X159.328 Y81.597 E5.61484
G1 X159.106 Y81.851 E5.62626
G1 X158.818 Y82.014 E5.63746
G1 X158.477 Y82.08 E5.64922
G1 X154.76 Y82.082 E5.77504
G1 X154.326 Y82.004 E5.78997
G1 X153.908 Y81.741 E5.80669
G1 X153.689 Y81.366 E5.82139
G1 X153.626 Y81.078 E5.83137
G1 X153.642 Y80.516 E5.8504
G1 X153.676 Y80.313 E5.85737
G1 X152.808 Y80.312 E5.88675
G1 X152.804 Y81.887 E5.94006
G1 X152.742 Y82.153 E5.94931
G1 X152.542 Y82.519 E5.96343
G1 X152.295 Y82.71 E5.974
G1 X151.922 Y82.824 E5.9872
G1 X151.563 Y82.793 E5.9994
G1 X151.271 Y82.641 E6.01054
G1 X150.948 Y82.298 E6.02649
G1 X150.854 Y81.998 E6.03713
G1 X150.845 Y78.358 E6.16034
;WIDTH:0.47079
G1 X150.832 Y77.799 E6.18023
;WIDTH:0.512348
G1 X150.81 Y77.641 E6.18646
;WIDTH:0.553906
G1 X150.788 Y77.484 E6.1932
G1 X150.72 Y77.626 E6.19989
;WIDTH:0.512348
G1 X150.652 Y77.768 E6.20604
;WIDTH:0.47079
G1 X150.371 Y78.084 E6.22108
;WIDTH:0.449999
G1 X150.147 Y78.212 E6.22981
G1 X149.776 Y78.299 E6.24271
G1 X147.997 Y78.3 E6.30293
G1 X148.424 Y78.66 E6.32183
G1 X148.782 Y79.204 E6.34387
G1 X148.972 Y79.894 E6.36809
G1 X148.977 Y80.619 E6.39263
G1 X148.777 Y81.328 E6.41757
G1 X148.558 Y81.677 E6.43152
G1 X148.301 Y81.989 E6.4452
G1 X147.871 Y82.319 E6.46355
G1 X147.377 Y82.564 E6.48221
G1 X146.989 Y82.684 E6.49596
G1 X146.321 Y82.804 E6.51893
G1 X145.602 Y82.832 E6.54329
G1 X144.653 Y82.742 E6.57556
G1 X144.091 Y82.592 E6.59525
G1 X143.433 Y82.236 E6.62057
G1 X143.048 Y81.875 E6.63843
G1 X142.76 Y81.441 E6.65606
G1 X142.586 Y80.956 E6.6735
G1 X142.516 Y80.508 E6.68885
G1 X142.513 Y79.977 E6.70682
G1 X142.6 Y79.477 E6.724
G1 X142.816 Y78.981 E6.74231
G1 X143.11 Y78.611 E6.75831
G1 X143.521 Y78.297 E6.77582
G1 X141.642 Y78.312 E6.83942
G1 X141.204 Y78.208 E6.85466
G1 X140.967 Y78.023 E6.86484
G1 X140.802 Y77.765 E6.87521
G1 X140.727 Y77.562 E6.88254
;WIPE_START
G1 F9600
G1 X140.242 Y77.564 E6.85374
G1 X139.244 Y77.547 E6.79448
G1 X138.881 Y77.531 E6.77291
G1 X138.353 Y77.519 E6.74155
G1 X137.308 Y77.518 E6.6795
G1 X137.306 Y77.842 E6.66026
G1 X138.352 Y77.843 E6.59815
G1 X138.832 Y77.871 E6.5696
G1 X139.08 Y77.923 E6.55455
G1 X139.369 Y78.093 E6.53464
G1 X139.634 Y78.45 E6.50824
G1 X139.737 Y79.026 E6.4735
G1 X139.694 Y80.97 E6.35805
G1 X139.701 Y81.501 E6.32652
G1 X139.603 Y81.944 E6.29958
G1 X139.492 Y82.143 E6.28605
G1 X139.297 Y82.351 E6.26912
G1 X138.917 Y82.548 E6.24371
G1 X138.576 Y82.569 E6.22342
G1 X138.342 Y82.524 E6.20927
G1 X138.052 Y82.38 E6.19005
G1 X137.772 Y82.087 E6.16599
G1 X137.662 Y81.73 E6.14381
G1 X137.645 Y81.568 E6.13414
G1 X137.696 Y79.802 E6.02924
G1 X137.255 Y79.788 E6.00304
G1 X133.875 Y79.82 E5.80234
G1 X133.535 Y79.749 E5.78172
G1 X133.303 Y79.626 E5.76613
G1 X133.05 Y79.356 E5.74416
G1 X132.922 Y78.915 E5.71689
G1 X132.954 Y78.491 E5.69164
G1 X133.072 Y78.23 E5.67463
G1 X133.303 Y77.986 E5.65468
G1 X133.483 Y77.922 E5.64334
G1 X133.663 Y77.857 E5.63198
G1 X133.76 Y77.851 E5.62621
G1 X135.206 Y77.845 E5.54035
G1 X135.369 Y77.844 E5.53067
G1 X135.369 Y77.518 E5.51131
G1 X135.205 Y77.518 E5.50157
G1 X133.759 Y77.52 E5.41571
G1 X133.472 Y77.539 E5.39863
G1 X133.185 Y77.558 E5.38155
G1 X132.392 Y77.558 E5.33447
G1 X132.042 Y77.503 E5.31343
G1 X131.629 Y77.221 E5.28374
G1 X131.479 Y76.983 E5.26704
G1 X131.406 Y76.662 E5.24749
G1 X131.441 Y76.274 E5.22436
G1 X131.58 Y75.963 E5.20413
G1 X131.745 Y75.811 E5.19081
G1 X132.106 Y75.606 E5.16616
G1 X132.628 Y75.54 E5.13492
G1 X133.335 Y75.544 E5.09294
G1 X133.694 Y75.537 E5.07162
G1 X133.359 Y75.419 E5.05053
G1 X133.082 Y75.198 E5.02949
G1 X132.907 Y74.929 E5.01044
G1 X132.811 Y74.422 E4.9798
G1 X132.805 Y72.921 E4.89068
G1 X132.808 Y72.784 E4.88254
;WIPE_END
G92 E0
G1 X134.486 Y73.939 F12000
G1 E2 F600
;TYPE:External perimeter
G1 F2400
G1 X137.761 Y73.915 E2.11086
G1 X139.125 Y73.937 E2.15704
G1 X139.418 Y74.059 E2.16778
G1 X139.588 Y74.308 E2.17799
G1 X139.615 Y74.666 E2.19014
G1 X139.486 Y74.964 E2.20113
G1 X139.272 Y75.105 E2.2098
G1 X139.052 Y75.142 E2.21735
G1 X133.946 Y75.143 E2.39018
G1 X133.684 Y75.109 E2.39912
G1 X133.509 Y75.04 E2.40549
G1 X133.288 Y74.781 E2.41701
G1 X133.217 Y74.382 E2.43073
G1 X133.212 Y72.922 E2.48015
G1 X133.247 Y71.455 E2.52982
G1 X133.331 Y71.191 E2.5392
G1 X133.51 Y71.03 E2.54735
G1 X133.922 Y70.926 E2.56173
G1 X134.131 Y70.968 E2.56895
G1 X134.335 Y71.117 E2.5775
G1 X134.483 Y71.432 E2.58928
G1 X134.474 Y73.88 E2.67214
G1 X134.828 Y73.731 F12000
;WIPE_START
G1 F9600
G1 X137.761 Y73.915 E2.47696
G1 X139.125 Y73.937 E2.39596
G1 X139.418 Y74.059 E2.37712
G1 X139.588 Y74.308 E2.35922
G1 X139.615 Y74.666 E2.3379
G1 X139.486 Y74.964 E2.31862
G1 X139.272 Y75.105 E2.3034
G1 X139.052 Y75.142 E2.29015
G1 X133.946 Y75.143 E1.98698
G1 X133.684 Y75.109 E1.97129
G1 X133.509 Y75.04 E1.96012
G1 X133.288 Y74.781 E1.9399
G1 X133.217 Y74.382 E1.91584
G1 X133.212 Y72.922 E1.82915
G1 X133.247 Y71.455 E1.74202
G1 X133.331 Y71.191 E1.72557
G1 X133.51 Y71.03 E1.71128
G1 X133.922 Y70.926 E1.68605
G1 X134.131 Y70.968 E1.67339
G1 X134.335 Y71.117 E1.65839
G1 X134.483 Y71.432 E1.63773
G1 X134.474 Y73.88 E1.49238
;WIPE_END
G1 E.67214 F600
G92 E0
G1 X140.715 Y77.513 F12000
G1 E2 F600
;TYPE:Perimeter
G1 F2400
G1 X140.714 Y77.505 E2.00027
;WIPE_START
G1 F9600
G1 X140.715 Y77.513 E1.99979
;WIPE_END
G1 E.00027 F600
G92 E0
G1 X143.809 Y74.656 F12000
G1 E2 F600
;TYPE:External perimeter
;WIDTH:0.524858
G1 F2400
G1 X144.043 Y74.656 E2.00938
;WIDTH:0.524976
G1 X147.93 Y74.657 E2.16518
G1 X148.292 Y74.695 E2.17977
;WIDTH:0.502968
G1 X148.524 Y74.794 E2.18942
;WIDTH:0.476484
G1 X148.755 Y74.893 E2.19848
;WIDTH:0.449999
G1 X148.916 Y75.238 E2.21137
