; generated by PrusaSlicer 2.6.0-beta2+win64 on 2023-06-04 at 16:24:13 UTC

; 

; external perimeters extrusion width = 0.45mm
; perimeters extrusion width = 0.45mm
; infill extrusion width = 0.45mm
; solid infill extrusion width = 0.45mm
; top infill extrusion width = 0.40mm
; support material extrusion width = 0.40mm

M190 S70 ; set bed temperature and wait for it to be reached
M104 S275 ; set temperature
;TYPE:Custom
G28 ; home all axes
G1 Z5 F5000 ; lift nozzle
M109 S275 ; set temperature and wait for it to be reached
G21 ; set units to millimeters
G90 ; use absolute coordinates
M82 ; use absolute distances for extrusion
G92 E0
; Filament gcode
M107
;LAYER_CHANGE
;Z:0.2
;HEIGHT:0.2
G1 E-2 F600
G92 E0
G1 Z.2 F12000
G1 X95.504 Y94.519
G1 E2 F600
;TYPE:Skirt/Brim
;WIDTH:0.45
G1 F2400
G1 X97.443 Y92.723 E2.08946
G1 X99.466 Y91.027 E2.17882
G1 X101.571 Y89.434 E2.26817
G1 X103.753 Y87.948 E2.35753
G1 X106.007 Y86.572 E2.44692
G1 X108.278 Y85.335 E2.53445
G1 X110.706 Y84.165 E2.62568
G1 X113.137 Y83.141 E2.71497
G1 X115.62 Y82.237 E2.80441
G1 X118.732 Y81.271 E2.91471
G1 X124.47 Y80.043 E3.11333
G1 X128.724 Y79.614 E3.25805
G1 X131.163 Y79.496 E3.3407
G1 X133.6 Y79.492 E3.42319
G1 X136.44 Y79.625 E3.51943
G1 X139.692 Y79.946 E3.63004
G1 X144.268 Y80.801 E3.78761
G1 X146.824 Y81.45 E3.87687
G1 X149.355 Y82.229 E3.96651
G1 X151.303 Y82.905 E4.0363
G1 X154.097 Y84.079 E4.13888
G1 X156.645 Y85.296 E4.23446
G1 X158.808 Y86.468 E4.31773
G1 X161.455 Y88.085 E4.42272
G1 X165.008 Y90.583 E4.56973
G1 X167.144 Y92.334 E4.66322
G1 X169.68 Y94.702 E4.78066
G1 X172.374 Y97.517 E4.91255
G1 X175.414 Y101.33 E5.07761
G1 X178.22 Y105.615 E5.25098
G1 X179.513 Y107.945 E5.34118
G1 X180.92 Y110.781 E5.44834
G1 X182.344 Y114.423 E5.58071
G1 X183.425 Y117.579 E5.69363
G1 X184.446 Y121.882 E5.84333
G1 X184.926 Y124.579 E5.93605
G1 X185.241 Y127.063 E6.0208
G1 X185.454 Y129.832 E6.1148
G1 X185.519 Y132.702 E6.21197
G1 X185.457 Y135.111 E6.29354
G1 X185.176 Y138.905 E6.42231
G1 X184.478 Y142.963 E6.56169
G1 X183.893 Y145.538 E6.65107
G1 X183.184 Y148.068 E6.74001
G1 X182.363 Y150.524 E6.82766
G1 X181.297 Y153.237 E6.92633
G1 X179.628 Y156.887 E7.06218
G1 X177.698 Y160.22 E7.19255
G1 X175.951 Y162.946 E7.30214
G1 X173.079 Y166.625 E7.46012
G1 X171.336 Y168.597 E7.54921
G1 X169.535 Y170.443 E7.63651
G1 X167.567 Y172.269 E7.72738
G1 X165.026 Y174.431 E7.84031
G1 X160.548 Y177.533 E8.0247
G1 X157.708 Y179.195 E8.13608
G1 X152.653 Y181.592 E8.32545
G1 X149.956 Y182.58 E8.42267
G1 X146.858 Y183.54 E8.53245
G1 X144.298 Y184.192 E8.62187
G1 X141.713 Y184.715 E8.71114
G1 X139.103 Y185.108 E8.80048
G1 X136.472 Y185.372 E8.88998
G1 X133.836 Y185.504 E8.97932
G1 X131.196 Y185.505 E9.06868
G1 X126.506 Y185.198 E9.22777
G1 X123.34 Y184.724 E9.33613
G1 X120.732 Y184.199 E9.42618
G1 X116.317 Y183.038 E9.5807
G1 X113.171 Y181.872 E9.69427
G1 X110.734 Y180.848 E9.78375
G1 X106.707 Y178.88 E9.93547
G1 X104.225 Y177.377 E10.03369
G1 X101.6 Y175.586 E10.14125
G1 X99.423 Y173.939 E10.23365
G1 X97.467 Y172.298 E10.32007
G1 X95.528 Y170.504 E10.40949
G1 X93.793 Y168.733 E10.49341
G1 X91.743 Y166.41 E10.59828
G1 X90.229 Y164.507 E10.68059
G1 X88.569 Y162.185 E10.77721
G1 X87.196 Y160.046 E10.86324
G1 X85.935 Y157.856 E10.94878
G1 X84.728 Y155.503 E11.03829
G1 X83.56 Y152.894 E11.13505
G1 X82.679 Y150.642 E11.2169
G1 X81.837 Y148.137 E11.30635
G1 X81.121 Y145.593 E11.39581
G1 X80.534 Y143.026 E11.48494
G1 X80.074 Y140.42 E11.57451
G1 X79.744 Y137.799 E11.66393
G1 X79.546 Y135.171 E11.75314
G1 X79.481 Y132.3 E11.85034
G1 X79.543 Y129.89 E11.93194
G1 X79.738 Y127.262 E12.02114
G1 X80.065 Y124.638 E12.11065
G1 X80.519 Y122.051 E12.19956
G1 X81.106 Y119.463 E12.28939
G1 X81.814 Y116.936 E12.37822
G1 X82.639 Y114.469 E12.46627
G1 X83.717 Y111.731 E12.56587
G1 X84.811 Y109.329 E12.65521
G1 X86.023 Y106.984 E12.74456
G1 X87.351 Y104.702 E12.83393
G1 X88.785 Y102.497 E12.92296
G1 X90.286 Y100.419 E13.00973
G1 X91.92 Y98.375 E13.09831
G1 X93.662 Y96.405 E13.18732
G1 X95.462 Y94.562 E13.27452
G1 X95.753 Y94.846 F12000
G1 F2400
G1 X97.709 Y93.03 E13.36486
G1 X99.717 Y91.347 E13.45354
G1 X101.806 Y89.767 E13.5422
G1 X103.971 Y88.292 E13.63087
G1 X106.208 Y86.926 E13.71959
G1 X108.463 Y85.698 E13.8065
G1 X110.871 Y84.537 E13.89699
G1 X113.284 Y83.521 E13.98561
G1 X115.747 Y82.624 E14.07434
G1 X118.852 Y81.66 E14.18439
G1 X124.551 Y80.442 E14.38165
G1 X128.744 Y80.021 E14.52429
G1 X131.172 Y79.903 E14.60657
G1 X133.6 Y79.899 E14.68876
G1 X136.409 Y80.031 E14.78395
G1 X139.651 Y80.351 E14.89422
G1 X144.176 Y81.198 E15.05005
G1 X146.714 Y81.842 E15.13868
G1 X149.224 Y82.615 E15.22758
G1 X151.146 Y83.281 E15.29643
G1 X153.939 Y84.454 E15.39897
G1 X156.46 Y85.658 E15.49354
G1 X158.613 Y86.826 E15.57645
G1 X161.226 Y88.422 E15.68009
G1 X164.752 Y90.899 E15.82595
G1 X166.867 Y92.633 E15.91852
G1 X169.388 Y94.986 E16.03525
G1 X172.076 Y97.794 E16.16683
G1 X175.078 Y101.561 E16.32988
G1 X177.864 Y105.813 E16.50195
G1 X179.15 Y108.129 E16.59162
G1 X180.541 Y110.93 E16.69748
G1 X181.96 Y114.558 E16.82934
G1 X183.039 Y117.711 E16.94214
G1 X184.048 Y121.965 E17.09013
G1 X184.524 Y124.643 E17.1822
G1 X184.837 Y127.112 E17.26644
G1 X185.048 Y129.856 E17.3596
G1 X185.112 Y132.691 E17.45559
G1 X185.05 Y135.094 E17.53696
G1 X184.77 Y138.875 E17.66529
G1 X184.079 Y142.886 E17.80306
G1 X183.498 Y145.442 E17.89178
G1 X182.793 Y147.953 E17.98006
G1 X181.978 Y150.392 E18.0671
G1 X180.925 Y153.072 E18.16457
G1 X179.276 Y156.683 E18.29894
G1 X177.353 Y160.002 E18.42878
G1 X175.608 Y162.726 E18.53828
G1 X172.771 Y166.36 E18.69433
G1 X171.04 Y168.317 E18.78277
G1 X169.252 Y170.151 E18.86947
G1 X167.3 Y171.962 E18.9596
G1 X164.762 Y174.121 E19.07239
G1 X160.319 Y177.196 E19.25529
G1 X157.531 Y178.828 E19.36464
G1 X152.513 Y181.21 E19.55266
G1 X149.832 Y182.192 E19.6493
G1 X146.75 Y183.148 E19.75853
G1 X144.21 Y183.794 E19.84724
G1 X141.644 Y184.313 E19.93585
G1 X139.054 Y184.704 E20.02451
G1 X136.444 Y184.966 E20.1133
G1 X133.828 Y185.097 E20.20196
G1 X131.208 Y185.098 E20.29064
G1 X126.564 Y184.795 E20.44817
G1 X123.411 Y184.323 E20.55608
G1 X120.823 Y183.802 E20.64544
G1 X116.458 Y182.656 E20.7982
G1 X113.32 Y181.494 E20.91147
G1 X110.902 Y180.477 E21.00026
G1 X106.917 Y178.53 E21.15039
G1 X104.453 Y177.04 E21.24786
G1 X101.837 Y175.255 E21.35506
G1 X99.676 Y173.62 E21.44678
G1 X97.736 Y171.993 E21.53248
G1 X95.812 Y170.212 E21.62122
G1 X94.085 Y168.449 E21.70476
G1 X92.061 Y166.156 E21.80829
G1 X90.553 Y164.26 E21.89029
G1 X88.911 Y161.964 E21.98584
G1 X87.547 Y159.839 E22.07131
G1 X86.291 Y157.659 E22.15647
G1 X85.094 Y155.324 E22.24529
G1 X83.939 Y152.746 E22.34091
G1 X83.061 Y150.5 E22.42254
G1 X82.225 Y148.015 E22.51129
G1 X81.515 Y145.491 E22.60004
G1 X80.932 Y142.943 E22.68852
G1 X80.476 Y140.356 E22.77744
G1 X80.149 Y137.755 E22.86617
G1 X79.952 Y135.147 E22.9547
G1 X79.888 Y132.31 E23.05075
G1 X79.95 Y129.906 E23.13215
G1 X80.143 Y127.299 E23.22064
G1 X80.468 Y124.695 E23.30947
G1 X80.918 Y122.127 E23.39772
G1 X81.502 Y119.559 E23.48686
G1 X82.205 Y117.052 E23.57499
G1 X83.024 Y114.602 E23.66243
G1 X84.088 Y111.898 E23.76079
G1 X85.173 Y109.514 E23.84945
G1 X86.376 Y107.187 E23.93812
G1 X87.693 Y104.923 E24.02678
G1 X89.116 Y102.734 E24.11515
G1 X90.607 Y100.669 E24.20136
G1 X92.229 Y98.64 E24.28929
G1 X93.957 Y96.685 E24.37761
G1 X95.711 Y94.889 E24.46258
G1 X96.002 Y95.173 F12000
G1 F2400
G1 X97.976 Y93.338 E24.55381
G1 X99.968 Y91.668 E24.6418
G1 X102.041 Y90.099 E24.7298
G1 X104.189 Y88.636 E24.81777
G1 X106.409 Y87.28 E24.90582
G1 X108.648 Y86.06 E24.99213
G1 X111.036 Y84.909 E25.08186
G1 X113.43 Y83.9 E25.1698
G1 X115.875 Y83.011 E25.25786
G1 X118.972 Y82.049 E25.36763
G1 X124.632 Y80.841 E25.56353
G1 X128.765 Y80.428 E25.70412
G1 X131.181 Y80.31 E25.786
G1 X133.6 Y80.306 E25.86788
G1 X136.377 Y80.437 E25.96198
G1 X139.611 Y80.756 E26.07198
G1 X144.085 Y81.595 E26.22606
G1 X146.603 Y82.234 E26.31399
G1 X149.094 Y83 E26.4022
G1 X150.99 Y83.656 E26.47011
G1 X153.781 Y84.829 E26.57259
G1 X156.274 Y86.02 E26.66611
G1 X158.419 Y87.183 E26.7487
G1 X160.996 Y88.758 E26.85093
G1 X164.496 Y91.216 E26.9957
G1 X166.59 Y92.931 E27.08732
G1 X169.097 Y95.27 E27.20338
G1 X171.779 Y98.072 E27.33467
G1 X174.743 Y101.792 E27.49567
G1 X177.509 Y106.011 E27.66643
G1 X178.788 Y108.314 E27.7556
G1 X180.162 Y111.079 E27.86011
G1 X181.576 Y114.693 E27.99147
G1 X182.654 Y117.843 E28.10416
G1 X183.65 Y122.049 E28.25047
G1 X184.122 Y124.707 E28.34185
G1 X184.433 Y127.162 E28.42561
G1 X184.641 Y129.879 E28.51785
G1 X184.705 Y132.681 E28.61272
G1 X184.643 Y135.077 E28.69385
G1 X184.364 Y138.844 E28.82171
G1 X183.679 Y142.809 E28.95791
G1 X183.102 Y145.345 E29.04594
G1 X182.403 Y147.838 E29.13358
G1 X181.593 Y150.259 E29.21999
G1 X180.657 Y152.659 E29.30719
G1 X178.923 Y156.48 E29.44922
G1 X177.009 Y159.785 E29.5785
G1 X175.266 Y162.506 E29.68788
G1 X172.533 Y166.011 E29.83832
G1 X169.527 Y169.315 E29.98952
G1 X167.033 Y171.654 E30.10526
G1 X164.498 Y173.81 E30.2179
G1 X160.089 Y176.86 E30.39937
G1 X157.355 Y178.461 E30.50661
G1 X152.372 Y180.828 E30.69334
G1 X149.708 Y181.804 E30.78937
G1 X146.642 Y182.755 E30.89803
G1 X144.121 Y183.397 E30.98609
G1 X141.576 Y183.912 E31.07398
G1 X139.005 Y184.3 E31.16199
G1 X136.415 Y184.56 E31.2501
G1 X133.819 Y184.69 E31.33808
G1 X131.219 Y184.691 E31.42609
G1 X126.622 Y184.392 E31.58202
G1 X123.481 Y183.922 E31.68952
G1 X120.914 Y183.405 E31.77815
G1 X116.6 Y182.274 E31.92911
G1 X113.469 Y181.115 E32.04212
G1 X111.069 Y180.106 E32.13024
G1 X107.126 Y178.181 E32.27876
G1 X104.682 Y176.703 E32.37544
G1 X102.074 Y174.924 E32.4823
G1 X99.929 Y173.301 E32.57335
G1 X98.004 Y171.687 E32.65838
G1 X96.096 Y169.92 E32.7464
G1 X94.376 Y168.165 E32.82958
G1 X92.379 Y165.902 E32.93174
G1 X90.876 Y164.013 E33.01345
G1 X89.253 Y161.743 E33.10791
G1 X87.898 Y159.633 E33.19279
G1 X86.648 Y157.463 E33.27756
G1 X85.46 Y155.146 E33.3657
G1 X84.318 Y152.597 E33.46024
G1 X83.442 Y150.358 E33.54162
G1 X82.614 Y147.893 E33.62964
G1 X81.908 Y145.388 E33.71773
G1 X81.331 Y142.859 E33.80553
G1 X80.878 Y140.293 E33.89373
G1 X80.554 Y137.712 E33.98178
G1 X80.359 Y135.124 E34.06963
G1 X80.295 Y132.32 E34.16457
G1 X80.356 Y129.923 E34.24573
G1 X80.549 Y127.336 E34.33354
G1 X80.871 Y124.751 E34.42172
G1 X81.318 Y122.204 E34.50925
G1 X81.898 Y119.656 E34.5977
G1 X82.595 Y117.167 E34.68519
G1 X83.409 Y114.734 E34.77203
G1 X84.459 Y112.065 E34.86911
G1 X85.536 Y109.7 E34.95707
G1 X86.728 Y107.391 E35.04503
G1 X88.035 Y105.144 E35.13302
G1 X89.447 Y102.972 E35.22071
G1 X90.928 Y100.919 E35.3064
G1 X92.538 Y98.905 E35.39368
G1 X94.253 Y96.965 E35.48133
G1 X95.96 Y95.216 E35.56405
;WIPE_START
G1 F9600
G1 X97.976 Y93.338 E35.40046
G1 X99.968 Y91.668 E35.24612
G1 X102.041 Y90.099 E35.09176
G1 X104.189 Y88.636 E34.93745
G1 X106.409 Y87.28 E34.78299
G1 X108.648 Y86.06 E34.6316
G1 X111.036 Y84.909 E34.4742
G1 X113.43 Y83.9 E34.31995
G1 X115.875 Y83.011 E34.16548
G1 X118.972 Y82.049 E33.97293
G1 X124.632 Y80.841 E33.6293
G1 X125.725 Y80.732 E33.56405
;WIPE_END
G92 E0
G1 X133.6 Y86.713 F12000
G1 E2 F600
;TYPE:Support material
;WIDTH:0.4
G1 F2400
G1 X135.88 Y86.825 E2.06778
G1 X138.151 Y87.05 E2.13554
G1 X138.76 Y87.139 E2.15381
G1 X138.975 Y87.132 E2.1602
G1 X140.504 Y87.405 E2.20632
G1 X142.648 Y87.838 E2.27126
G1 X144.86 Y88.399 E2.33902
G1 X147.045 Y89.071 E2.40689
G1 X148.527 Y89.571 E2.45333
G1 X148.686 Y89.666 E2.45883
G1 X149.278 Y89.884 E2.47756
G1 X151.292 Y90.733 E2.54245
G1 X153.351 Y91.722 E2.61027
G1 X155.355 Y92.81 E2.67798
G1 X157.387 Y94.052 E2.74869
G1 X159.195 Y95.285 E2.81367
G1 X160.462 Y96.194 E2.85997
G1 X160.599 Y96.345 E2.86602
G1 X162.235 Y97.631 E2.92781
G1 X162.366 Y97.79 E2.93393
G1 X162.838 Y98.189 E2.95228
G1 X164.51 Y99.744 E3.02008
G1 X166.038 Y101.31 E3.08504
G1 X167.092 Y102.441 E3.13094
G1 X167.202 Y102.625 E3.13731
G1 X167.612 Y103.092 E3.15576
G1 X168.975 Y104.802 E3.22069
G1 X169.339 Y105.303 E3.23908
G1 X169.462 Y105.42 E3.24412
G1 X170.364 Y106.733 E3.29142
G1 X171.913 Y109.131 E3.37618
G1 X171.971 Y109.292 E3.38126
G1 X172.686 Y110.532 E3.42376
G1 X172.98 Y111.096 E3.44264
G1 X173.079 Y111.223 E3.44742
G1 X174.046 Y113.207 E3.51295
G1 X174.198 Y113.42 E3.52072
G1 X175.532 Y116.82 E3.62916
G1 X176.247 Y118.942 E3.69565
G1 X176.43 Y119.582 E3.71541
G1 X176.592 Y119.916 E3.72643
G1 X177.379 Y123.363 E3.83141
G1 X177.794 Y125.707 E3.90209
G1 X178.073 Y127.943 E3.96899
G1 X178.245 Y130.25 E4.03768
G1 X178.3 Y132.523 E4.10519
G1 X178.242 Y134.814 E4.17323
G1 X177.975 Y138.365 E4.27896
G1 X177.866 Y138.717 E4.2899
G1 X177.785 Y139.351 E4.30888
G1 X177.386 Y141.603 E4.37679
G1 X176.877 Y143.828 E4.44456
G1 X176.258 Y146.023 E4.51227
G1 X175.533 Y148.179 E4.57981
G1 X174.7 Y150.299 E4.64744
G1 X173.762 Y152.377 E4.71513
G1 X173.481 Y152.925 E4.73342
G1 X173.374 Y153.276 E4.74432
G1 X171.591 Y156.365 E4.85022
G1 X170.344 Y158.297 E4.91849
G1 X170.001 Y158.775 E4.93596
G1 X169.872 Y159.049 E4.94495
G1 X168.081 Y161.342 E5.03134
G1 X167.601 Y161.92 E5.05365
G1 X166.093 Y163.632 E5.12139
G1 X165.061 Y164.721 E5.16594
G1 X164.897 Y164.86 E5.17232
G1 X164.431 Y165.332 E5.19201
G1 X162.83 Y166.818 E5.25687
G1 X161.08 Y168.289 E5.32475
G1 X160.557 Y168.698 E5.34446
G1 X160.349 Y168.929 E5.35369
G1 X156.481 Y171.566 E5.49269
G1 X156.205 Y171.673 E5.50148
G1 X155.43 Y172.147 E5.52845
G1 X154.862 Y172.458 E5.54768
G1 X154.574 Y172.689 E5.55864
G1 X150.155 Y174.817 E5.70427
G1 X149.794 Y174.898 E5.71526
G1 X149.266 Y175.121 E5.73228
G1 X147.759 Y175.701 E5.78022
G1 X147.615 Y175.724 E5.78455
G1 X147.033 Y175.932 E5.8029
G1 X144.941 Y176.578 E5.86791
G1 X142.729 Y177.143 E5.9357
G1 X140.492 Y177.597 E6.00347
G1 X138.235 Y177.939 E6.07125
G1 X135.963 Y178.169 E6.13905
G1 X133.683 Y178.285 E6.20683
G1 X131.4 Y178.287 E6.27462
G1 X129.118 Y178.175 E6.34246
G1 X127.539 Y178.051 E6.38949
G1 X127.374 Y178.003 E6.39459
G1 X126.752 Y177.938 E6.41316
G1 X124.596 Y177.613 E6.4779
G1 X122.352 Y177.162 E6.54586
G1 X118.822 Y176.265 E6.654
G1 X118.494 Y176.095 E6.66497
G1 X117.873 Y175.901 E6.68429
G1 X115.812 Y175.151 E6.74941
G1 X113.707 Y174.266 E6.81721
G1 X110.423 Y172.687 E6.9254
G1 X110.134 Y172.456 E6.93639
G1 X108.284 Y171.404 E6.99958
G1 X108.136 Y171.271 E7.00549
G1 X107.613 Y170.948 E7.02374
G1 X105.728 Y169.66 E7.09153
G1 X103.915 Y168.284 E7.15911
G1 X102.162 Y166.811 E7.22709
G1 X100.489 Y165.256 E7.29491
G1 X98.897 Y163.621 E7.36267
G1 X97.388 Y161.908 E7.43045
G1 X95.97 Y160.127 E7.49804
G1 X94.635 Y158.267 E7.56602
G1 X93.42 Y156.384 E7.63256
G1 X92.259 Y154.371 E7.70156
G1 X91.219 Y152.337 E7.76939
G1 X90.282 Y150.256 E7.83715
G1 X89.449 Y148.131 E7.90492
G1 X88.724 Y145.966 E7.97271
G1 X88.107 Y143.767 E8.04052
G1 X87.602 Y141.546 E8.10815
G1 X87.206 Y139.292 E8.1761
G1 X86.924 Y137.027 E8.24387
G1 X86.755 Y134.751 E8.31163
G1 X86.7 Y132.478 E8.37914
G1 X86.758 Y130.186 E8.44721
G1 X86.93 Y127.914 E8.51486
G1 X87.215 Y125.645 E8.58276
G1 X87.611 Y123.407 E8.65024
G1 X88.123 Y121.172 E8.71832
G1 X88.74 Y118.981 E8.7859
G1 X89.467 Y116.82 E8.8536
G1 X90.299 Y114.701 E8.92119
G1 X91.237 Y112.623 E8.98888
G1 X92.277 Y110.594 E9.05658
G1 X93.417 Y108.619 E9.12429
G1 X94.654 Y106.704 E9.19198
G1 X95.979 Y104.861 E9.25938
G1 X97.398 Y103.08 E9.32699
G1 X98.906 Y101.369 E9.39471
G1 X100.498 Y99.734 E9.46247
G1 X102.171 Y98.18 E9.53027
G1 X103.919 Y96.712 E9.59805
G1 X105.738 Y95.332 E9.66584
G1 X107.623 Y94.045 E9.73361
G1 X109.57 Y92.853 E9.80139
G1 X111.564 Y91.765 E9.86883
G1 X113.631 Y90.767 E9.93698
G1 X115.733 Y89.879 E10.00473
G1 X117.878 Y89.096 E10.07253
G1 X120.059 Y88.422 E10.14031
G1 X120.652 Y88.269 E10.15849
G1 X120.868 Y88.169 E10.16556
G1 X122.364 Y87.836 E10.21107
G1 X125.901 Y87.121 E10.31821
G1 X126.161 Y87.133 E10.32594
G1 X129.084 Y86.827 E10.4132
G1 X131.317 Y86.715 E10.47958
G1 X133.547 Y86.713 E10.54579
G1 X133.039 Y95.492 F12000
G1 F2400
G1 X133.434 Y95.493 E10.55752
G1 X135.277 Y95.585 E10.61231
G1 X137.114 Y95.769 E10.66713
G1 X138.939 Y96.045 E10.72193
G1 X140.748 Y96.411 E10.77673
G1 X142.537 Y96.867 E10.83155
G1 X144.301 Y97.412 E10.88637
