; generated by SuperSlicer 2.4 on 2023-06-08 at 13:03:57 UTC

; 

; external perimeters extrusion width = 0.42mm
; perimeters extrusion width = 0.46mm
; infill extrusion width = 0.44mm
; solid infill extrusion width = 0.46mm
; top infill extrusion width = 0.44mm
; first layer extrusion width = 0.60mm

; external perimeters extrusion width = 0.42mm
; perimeters extrusion width = 0.46mm
; infill extrusion width = 0.44mm
; solid infill extrusion width = 0.46mm
; top infill extrusion width = 0.44mm
; first layer extrusion width = 0.60mm

; object:{"name":"main-Rack_combined001","id":"main-Rack_combined001.obj id:0 copy 0","object_center":[136.460135,129.101277,0.000000],"boundingbox_center":[136.460135,129.101277,6.499000],"boundingbox_size":[218.114152,217.923241,12.997999]}
; plater:{"center":[136.460135,129.101277,0.000000],"boundingbox_center":[136.460135,129.101277,6.499000],"boundingbox_size":[218.114152,217.923241,12.997999]}

;TYPE:Custom
G28 ; home all axes
G1 Z5 F5000 ; lift nozzle
M107
G21 ; set units to millimeters
G90 ; use absolute coordinates
M82 ; use absolute distances for extrusion
G92 E0
; Filament gcode
;_TOOLCHANGE 0
M104 S260 ; set temperature
M109 S260 ; set temperature and wait for it to be reached
M190 S70 ; set bed temperature and wait for it to be reached
M107
;LAYER_CHANGE
;Z:0.2
;HEIGHT:0.2
G1 E-2 F600
G1 Z0.15 F15000
G1 Z0.2
G92 E0
G1 Z0.35
G1 X49.36 Y49.36
G1 Z0.2
G1 E2.4 F600
;TYPE:Skirt
;WIDTH:0.44
G1 F2400
G1 X26.288 Y72.432 E3.47732
G1 X25.146 Y73.908 E3.53894
G1 X24.275 Y76.169 E3.61894
G1 X24.183 Y78.591 E3.69895
G1 X24.879 Y80.912 E3.77896
G1 X26.288 Y82.883 E3.85896
G1 X182.6 Y239.195 E11.15772
G1 X184.076 Y240.337 E11.21934
G1 X186.337 Y241.208 E11.29934
G1 X188.758 Y241.3 E11.37935
G1 X191.079 Y240.604 E11.45936
G1 X193.051 Y239.195 E11.53936
G1 X196.796 Y235.441 E11.71444
G1 X245.305 Y182.789 E14.07821
G1 X246.238 Y181.531 E14.12991
G1 X247.108 Y179.27 E14.20991
G1 X247.2 Y176.848 E14.28992
G1 X246.504 Y174.527 E14.36993
G1 X245.095 Y172.556 E14.44993
G1 X90.855 Y18.316 E21.65195
G1 X89.379 Y17.174 E21.71356
G1 X87.118 Y16.303 E21.79357
G1 X84.697 Y16.211 E21.87358
G1 X82.375 Y16.907 E21.95358
G1 X80.404 Y18.316 E22.03359
G1 X49.403 Y49.318 E23.48117
G1 X49.683 Y49.598 F15000
G1 F2400
G1 X26.569 Y72.713 E24.56047
G1 X25.623 Y73.889 E24.6103
G1 X24.706 Y76.06 E24.68811
G1 X24.561 Y78.412 E24.76592
G1 X25.207 Y80.679 E24.84374
G1 X26.569 Y82.602 E24.92155
G1 X182.881 Y238.914 E32.22031
G1 X184.057 Y239.86 E32.27013
G1 X186.228 Y240.777 E32.34794
G1 X188.58 Y240.922 E32.42576
G1 X190.846 Y240.276 E32.50357
G1 X192.77 Y238.914 E32.58138
G1 X196.504 Y235.172 E32.75592
G1 X245.013 Y182.52 E35.11969
G1 X245.76 Y181.55 E35.16011
G1 X246.677 Y179.379 E35.23792
G1 X246.822 Y177.027 E35.31574
G1 X246.176 Y174.76 E35.39355
G1 X244.814 Y172.837 E35.47136
G1 X90.574 Y18.597 E42.67338
G1 X89.398 Y17.651 E42.7232
G1 X87.227 Y16.734 E42.80101
G1 X84.875 Y16.59 E42.87883
G1 X82.608 Y17.235 E42.95664
G1 X80.685 Y18.597 E43.03445
G1 X49.726 Y49.556 E44.48005
G1 X50.007 Y49.837 F15000
G1 F2400
G1 X26.85 Y72.994 E45.56133
G1 X26.105 Y73.882 E45.5996
G1 X25.141 Y75.957 E45.67515
G1 X24.943 Y78.237 E45.75071
G1 X25.537 Y80.447 E45.82626
G1 X26.85 Y82.321 E45.90182
G1 X183.161 Y238.633 E53.20058
G1 X184.05 Y239.378 E53.23884
G1 X186.125 Y240.342 E53.3144
G1 X188.405 Y240.54 E53.38995
G1 X190.615 Y239.946 E53.46551
G1 X192.489 Y238.633 E53.54106
G1 X196.212 Y234.903 E53.71506
G1 X244.721 Y182.251 E56.07884
G1 X246.242 Y179.482 E56.18315
G1 X246.44 Y177.202 E56.25871
G1 X245.846 Y174.992 E56.33426
G1 X244.534 Y173.118 E56.40982
G1 X90.293 Y18.878 E63.61183
G1 X89.405 Y18.133 E63.6501
G1 X87.33 Y17.169 E63.72565
G1 X85.05 Y16.971 E63.80121
G1 X82.84 Y17.565 E63.87676
G1 X80.966 Y18.878 E63.95232
G1 X50.049 Y49.794 E65.39593
G1 X50.33 Y50.075 F15000
G1 F2400
G1 X27.13 Y73.275 E66.4792
G1 X25.58 Y75.863 E66.57879
G1 X25.328 Y78.066 E66.65202
G1 X25.868 Y80.217 E66.72525
G1 X27.13 Y82.041 E66.79848
G1 X183.442 Y238.353 E74.09723
G1 X186.03 Y239.903 E74.19683
G1 X188.234 Y240.155 E74.27006
G1 X190.385 Y239.615 E74.34328
G1 X192.208 Y238.353 E74.41651
G1 X195.92 Y234.634 E74.58997
G1 X244.429 Y181.982 E76.95375
G1 X245.803 Y179.577 E77.0452
G1 X246.055 Y177.373 E77.11843
G1 X245.515 Y175.222 E77.19165
G1 X244.253 Y173.399 E77.26488
G1 X90.013 Y19.158 E84.4669
G1 X87.425 Y17.608 E84.56649
G1 X85.221 Y17.356 E84.63972
G1 X83.07 Y17.896 E84.71295
G1 X81.247 Y19.158 E84.78617
G1 X50.372 Y50.033 E86.22781
G92 E0
G1 E-2 F600
G1 Z0.35 F15000
; printing object main-Rack_combined001.obj id:0 copy 0
G1 X55.072 Y55.016
G1 Z0.2
G1 E0.4 F600
;TYPE:External perimeter
;WIDTH:0.604
G1 F2400
G1 X54.969 Y54.629
G1 X85.63 Y23.968 E2.42296
G1 X234.893 Y173.232 E12.27118
;TYPE:Internal perimeter
G1 X234.497 Y173.629 E12.29736
G1 X234.1 Y174.026 E12.32353
G1 X233.703 Y174.422 E12.34971
G1 X85.63 Y26.349 E22.1194
G1 X84.952 Y27.026 E22.16409
G1 X34.321 Y77.658 E25.50468
G1 X187.825 Y231.162 E35.6327
G1 X189.926 Y229.061 E35.77131
G1 X190.827 Y228.078 E35.83354
G1 X190.609 Y227.781 E35.85071
G1 X187.65 Y229.159 E36.00298
G1 X187.621 Y229.791 E36.03254
G1 X188.103 Y229.567 E36.05734
G1 X188.319 Y229.875 E36.07491
G1 X187.825 Y230.369 E36.10746
G1 X187.565 Y230.108 E36.12465
G1 X187.198 Y229.079 E36.17564
G1 X184.636 Y226.517 E36.34466
G1 X185.523 Y224.615 E36.44259
G1 X183.621 Y225.502 E36.54051
G1 X180.862 Y222.743 E36.72253
G1 X181.75 Y220.835 E36.8207
G1 X179.843 Y221.724 E36.91887
G1 X177.085 Y218.965 E37.10085
G1 X177.971 Y217.062 E37.1988
G1 X176.069 Y217.95 E37.29671
G1 X173.309 Y215.189 E37.47885
G1 X174.196 Y213.284 E37.5769
G1 X172.291 Y214.172 E37.67494
G1 X169.531 Y211.412 E37.85705
G1 X170.418 Y209.509 E37.95499
G1 X168.516 Y210.397 E38.0529
G1 X165.755 Y207.636 E38.23507
G1 X166.643 Y205.731 E38.33314
G1 X164.738 Y206.619 E38.4312
G1 X161.977 Y203.858 E38.61334
G1 X162.865 Y201.955 E38.71129
G1 X160.963 Y202.843 E38.80922
G1 X158.202 Y200.082 E38.99139
G1 X159.09 Y198.178 E39.08943
G1 X157.184 Y199.065 E39.18749
G1 X154.424 Y196.304 E39.36963
G1 X155.312 Y194.402 E39.46756
G1 X153.409 Y195.29 E39.56552
G1 X150.65 Y192.531 E39.74753
G1 X151.538 Y190.623 E39.8457
G1 X149.631 Y191.512 E39.94387
G1 X146.872 Y188.753 E40.12588
G1 X147.759 Y186.85 E40.22383
G1 X145.857 Y187.738 E40.32177
G1 X143.097 Y184.978 E40.50391
G1 X143.984 Y183.072 E40.60196
G1 X142.079 Y183.96 E40.7
G1 X139.318 Y181.199 E40.88217
G1 X140.207 Y179.297 E40.98013
G1 X138.304 Y180.185 E41.07809
G1 X135.543 Y177.424 E41.26026
G1 X136.431 Y175.519 E41.35832
G1 X134.526 Y176.407 E41.45639
G1 X131.765 Y173.646 E41.63856
G1 X132.653 Y171.744 E41.73649
G1 X130.75 Y172.631 E41.83444
G1 X127.992 Y169.872 E42.01646
G1 X128.88 Y167.965 E42.11463
G1 X126.972 Y168.853 E42.21279
G1 X124.214 Y166.095 E42.39481
G1 X125.102 Y164.189 E42.49287
G1 X123.197 Y165.078 E42.59094
G1 X120.438 Y162.319 E42.77295
G1 X121.327 Y160.412 E42.87112
G1 X119.419 Y161.3 E42.96929
G1 X116.66 Y158.541 E43.1513
G1 X117.548 Y156.638 E43.24925
G1 X115.645 Y157.526 E43.34719
G1 X112.885 Y154.766 E43.52933
G1 X113.772 Y152.86 E43.62738
G1 X111.868 Y153.748 E43.72542
G1 X109.107 Y150.987 E43.90759
G1 X109.995 Y149.085 E44.00555
G1 X108.092 Y149.973 E44.10351
G1 X105.331 Y147.212 E44.28568
G1 X106.219 Y145.307 E44.38372
G1 X104.314 Y146.195 E44.48178
G1 X101.553 Y143.434 E44.66391
G1 X102.441 Y141.532 E44.76185
G1 X100.538 Y142.419 E44.8598
G1 X97.78 Y139.661 E45.04182
G1 X98.668 Y137.753 E45.13998
G1 X96.761 Y138.641 E45.23815
G1 X94.002 Y135.883 E45.42017
G1 X94.89 Y133.978 E45.51821
G1 X92.985 Y134.865 E45.61626
G1 X90.226 Y132.107 E45.79824
G1 X91.115 Y130.2 E45.89641
G1 X89.207 Y131.088 E45.99458
G1 X86.449 Y128.329 E46.1766
G1 X87.336 Y126.427 E46.27452
G1 X85.433 Y127.314 E46.37245
G1 X82.673 Y124.553 E46.55459
G1 X83.561 Y122.648 E46.65265
G1 X81.656 Y123.537 E46.75072
G1 X78.895 Y120.776 E46.93289
G1 X79.782 Y118.874 E47.0308
G1 X77.879 Y119.76 E47.12874
G1 X75.119 Y117 E47.31085
G1 X76.007 Y115.096 E47.40889
G1 X74.102 Y115.983 E47.50695
G1 X71.341 Y113.222 E47.68909
G1 X72.229 Y111.321 E47.787
G1 X70.326 Y112.207 E47.88494
G1 X67.568 Y109.449 E48.06692
G1 X68.456 Y107.541 E48.16509
G1 X66.549 Y108.43 E48.26326
G1 X63.79 Y105.671 E48.44527
G1 X64.677 Y103.768 E48.5432
G1 X62.775 Y104.655 E48.64113
G1 X60.015 Y101.895 E48.82323
G1 X60.901 Y99.992 E48.92118
G1 X58.999 Y100.88 E49.01909
G1 X56.236 Y98.117 E49.20139
G1 X57.124 Y96.215 E49.29932
G1 X55.221 Y97.102 E49.39727
G1 X52.461 Y94.342 E49.57941
G1 X53.348 Y92.439 E49.67736
G1 X51.446 Y93.327 E49.7753
G1 X48.683 Y90.564 E49.95759
G1 X49.571 Y88.662 E50.05551
G1 X47.667 Y89.548 E50.15345
G1 X44.907 Y86.788 E50.33556
G1 X45.794 Y84.886 E50.43349
G1 X43.892 Y85.773 E50.53141
G1 X41.13 Y83.01 E50.71368
G1 X42.017 Y81.109 E50.81159
G1 X40.114 Y81.995 E50.90954
G1 X37.754 Y79.634 E51.06529
G1 X37.163 Y79.396 E51.09498
G1 X37.203 Y78.16 E51.1527
G1 X49.977 Y64.209 E52.03518
G1 X49.66 Y63.906 E52.05567
G1 X35.908 Y77.658 E52.96299
G1 X36.824 Y78.573 E53.02341
G1 X36.643 Y79.186 E53.05322
G1 X35.114 Y77.658 E53.15409
G1 X67.306 Y45.466 E55.27805
G1 X67.623 Y45.77 E55.29853
G1 X37.031 Y79.178 E57.41191
G1 X37.745 Y79.229 E57.4453
G1 X85.215 Y27.39 E60.72461
G1 X87.897 Y30.073 E60.90162
G1 X87.009 Y31.976 E60.99959
G1 X88.912 Y31.087 E61.09756
G1 X91.673 Y33.848 E61.27973
G1 X90.785 Y35.753 E61.37779
G1 X92.69 Y34.865 E61.47584
G1 X95.451 Y37.626 E61.65801
G1 X94.563 Y39.529 E61.75597
G1 X96.465 Y38.641 E61.85393
G1 X99.226 Y41.402 E62.0361
G1 X98.338 Y43.306 E62.13414
G1 X100.244 Y42.419 E62.2322
G1 X103.004 Y45.179 E62.41434
G1 X102.116 Y47.082 E62.51227
G1 X104.019 Y46.194 E62.61022
G1 X106.778 Y48.953 E62.79223
G1 X105.889 Y50.861 E62.8904
G1 X107.797 Y49.972 E62.98857
G1 X110.556 Y52.731 E63.17058
G1 X109.668 Y54.634 E63.26854
G1 X111.57 Y53.746 E63.36648
G1 X114.331 Y56.506 E63.54861
G1 X113.444 Y58.412 E63.64667
G1 X115.348 Y57.524 E63.74471
G1 X118.109 Y60.285 E63.92688
G1 X117.221 Y62.187 E64.02484
G1 X119.124 Y61.299 E64.1228
G1 X121.885 Y64.06 E64.30497
G1 X120.997 Y65.965 E64.40303
G1 X122.902 Y65.077 E64.50109
G1 X125.663 Y67.838 E64.68326
G1 X124.775 Y69.74 E64.7812
G1 X126.678 Y68.853 E64.87915
G1 X129.436 Y71.612 E65.06117
G1 X128.548 Y73.519 E65.15933
G1 X130.455 Y72.631 E65.2575
G1 X133.214 Y75.389 E65.43952
G1 X132.326 Y77.294 E65.53756
G1 X134.231 Y76.407 E65.63561
G1 X136.99 Y79.165 E65.81759
G1 X136.101 Y81.072 E65.91576
G1 X138.009 Y80.184 E66.01393
G1 X140.767 Y82.943 E66.19594
G1 X139.88 Y84.845 E66.29387
G1 X141.783 Y83.958 E66.3918
G1 X144.543 Y86.718 E66.57391
G1 X143.656 Y88.624 E66.67196
G1 X145.56 Y87.735 E66.77
G1 X148.321 Y90.497 E66.95217
G1 X147.433 Y92.398 E67.05008
G1 X149.337 Y91.512 E67.14803
G1 X152.097 Y94.272 E67.33014
G1 X151.209 Y96.177 E67.42818
G1 X153.114 Y95.289 E67.52623
G1 X155.875 Y98.05 E67.70837
G1 X154.987 Y99.951 E67.80628
G1 X156.89 Y99.065 E67.90423
G1 X159.648 Y101.823 E68.08621
G1 X158.76 Y103.731 E68.18438
G1 X160.667 Y102.843 E68.28255
G1 X163.426 Y105.601 E68.46456
G1 X162.538 Y107.506 E68.5626
G1 X164.443 Y106.619 E68.66065
G1 X167.201 Y109.377 E68.84263
G1 X166.315 Y111.28 E68.94058
G1 X168.217 Y110.392 E69.0385
G1 X170.979 Y113.155 E69.22076
G1 X170.092 Y115.057 E69.31868
G1 X171.995 Y114.17 E69.41661
G1 X174.755 Y116.931 E69.59875
G1 X173.868 Y118.833 E69.6967
G1 X175.77 Y117.945 E69.79464
G1 X178.533 Y120.708 E69.97693
G1 X177.645 Y122.61 E70.07484
G1 X179.548 Y121.724 E70.17279
G1 X182.309 Y124.484 E70.3549
G1 X181.421 Y126.386 E70.45282
G1 X183.324 Y125.499 E70.55075
G1 X186.083 Y128.258 E70.73277
G1 X185.194 Y130.165 E70.83093
G1 X187.102 Y129.277 E70.9291
G1 X189.86 Y132.035 E71.11108
G1 X188.973 Y133.941 E71.20914
G1 X190.877 Y133.053 E71.30718
G1 X193.636 Y135.811 E71.48919
G1 X192.749 Y137.717 E71.58725
G1 X194.653 Y136.829 E71.68529
G1 X197.413 Y139.589 E71.86739
G1 X196.527 Y141.492 E71.96534
G1 X198.429 Y140.604 E72.06325
G1 X201.19 Y143.365 E72.24542
G1 X200.301 Y145.27 E72.34348
G1 X202.206 Y144.382 E72.44154
G1 X204.967 Y147.142 E72.62368
G1 X204.08 Y149.045 E72.72163
G1 X205.982 Y148.157 E72.81957
G1 X208.743 Y150.918 E73.00174
G1 X207.855 Y152.823 E73.09978
G1 X209.76 Y151.936 E73.19784
G1 X212.52 Y154.696 E73.37994
G1 X211.633 Y156.598 E73.47787
G1 X213.536 Y155.711 E73.5758
G1 X216.294 Y158.47 E73.75781
G1 X215.406 Y160.377 E73.85598
G1 X217.314 Y159.489 E73.95415
G1 X220.072 Y162.248 E74.13616
G1 X219.185 Y164.15 E74.23411
G1 X221.087 Y163.263 E74.33205
G1 X223.848 Y166.023 E74.51419
G1 X222.96 Y167.928 E74.61224
G1 X224.865 Y167.04 E74.71029
G1 X227.626 Y169.801 E74.89245
G1 X226.738 Y171.704 E74.99041
G1 X228.64 Y170.816 E75.08837
G1 X231.401 Y173.577 E75.27054
G1 X230.513 Y175.482 E75.36861
G1 X232.418 Y174.594 E75.46668
G1 X235.179 Y177.355 E75.64885
G1 X234.291 Y179.257 E75.74681
G1 X236.194 Y178.369 E75.84477
G1 X236.334 Y178.51 E75.85403
G1 X237.062 Y177.782 E75.90206
G1 X234.1 Y174.819 E76.09752
G1 X234.497 Y174.422 E76.12369
G1 X237.856 Y177.782 E76.34533
G1 X236.334 Y179.303 E76.44571
G1 X236.075 Y179.044 E76.46281
G1 X233.13 Y180.419 E76.61445
G1 X234.505 Y177.474 E76.76608
G1 X232.299 Y175.268 E76.91158
G1 X229.353 Y176.642 E77.06324
G1 X230.727 Y173.696 E77.21489
G1 X228.522 Y171.49 E77.36039
G1 X225.577 Y172.865 E77.51203
G1 X226.951 Y169.92 E77.66366
G1 X224.746 Y167.715 E77.80916
G1 X221.802 Y169.088 E77.96073
G1 X223.173 Y166.142 E78.11233
G1 X220.968 Y163.937 E78.25781
G1 X218.025 Y165.311 E78.40937
G1 X219.398 Y162.367 E78.56096
G1 X217.194 Y160.163 E78.70632
G1 X214.248 Y161.536 E78.85798
G1 X215.62 Y158.589 E79.00963
G1 X213.417 Y156.386 E79.155
G1 X210.473 Y157.758 E79.30651
G1 X211.846 Y154.815 E79.45802
G1 X209.641 Y152.61 E79.60348
G1 X206.696 Y153.982 E79.75508
G1 X208.068 Y151.037 E79.90665
G1 X205.863 Y148.832 E80.05215
G1 X202.919 Y150.206 E80.20371
G1 X204.292 Y147.261 E80.3553
G1 X202.088 Y145.056 E80.50078
G1 X199.142 Y146.43 E80.65242
G1 X200.515 Y143.484 E80.80407
G1 X198.31 Y141.279 E80.94958
G1 X195.368 Y142.652 E81.10106
G1 X196.739 Y139.708 E81.2526
G1 X194.534 Y137.503 E81.39805
G1 X191.59 Y138.876 E81.54962
G1 X192.962 Y135.93 E81.70122
G1 X190.758 Y133.727 E81.84659
G1 X187.814 Y135.1 E81.99816
G1 X189.186 Y132.154 E82.14975
G1 X186.983 Y129.951 E82.2951
G1 X184.036 Y131.324 E82.44675
G1 X185.408 Y128.377 E82.59841
G1 X183.205 Y126.174 E82.74377
G1 X180.262 Y127.546 E82.89529
G1 X181.634 Y124.603 E83.0468
G1 X179.429 Y122.398 E83.19225
G1 X176.485 Y123.769 E83.34379
G1 X177.858 Y120.827 E83.49528
G1 X175.651 Y118.62 E83.6409
G1 X172.708 Y119.994 E83.79246
G1 X174.081 Y117.049 E83.94404
G1 X171.876 Y114.844 E84.08952
G1 X168.932 Y116.217 E84.24103
G1 X170.305 Y113.274 E84.39254
G1 X168.098 Y111.067 E84.53814
G1 X165.156 Y112.44 E84.68962
G1 X166.527 Y109.496 E84.84116
G1 X164.324 Y107.293 E84.9865
G1 X161.379 Y108.665 E85.1381
G1 X162.751 Y105.72 E85.28967
G1 X160.548 Y103.517 E85.43504
G1 X157.601 Y104.889 E85.58669
G1 X158.974 Y101.943 E85.73835
G1 X156.771 Y99.74 E85.88369
G1 X153.826 Y101.111 E86.03523
G1 X155.2 Y98.169 E86.18671
G1 X152.995 Y95.964 E86.33219
G1 X150.049 Y97.335 E86.48379
G1 X151.422 Y94.391 E86.63536
G1 X149.217 Y92.186 E86.78082
G1 X146.273 Y93.558 E86.93236
G1 X147.647 Y90.615 E87.08384
G1 X145.441 Y88.41 E87.22935
G1 X142.497 Y89.783 E87.38092
G1 X143.868 Y86.837 E87.53251
G1 X141.664 Y84.633 E87.67797
G1 X138.721 Y86.005 E87.82948
G1 X140.093 Y83.062 E87.98099
G1 X137.89 Y80.858 E88.12636
G1 X134.943 Y82.231 E88.27802
G1 X136.315 Y79.284 E88.42967
G1 X134.112 Y77.081 E88.57502
G1 X131.167 Y78.453 E88.72661
G1 X132.54 Y75.508 E88.87818
G1 X130.336 Y73.305 E89.02355
G1 X127.39 Y74.677 E89.17521
G1 X128.762 Y71.731 E89.32686
G1 X126.559 Y69.527 E89.47223
G1 X123.614 Y70.9 E89.62381
G1 X124.988 Y67.957 E89.77538
G1 X122.783 Y65.751 E89.92088
G1 X119.837 Y67.125 E90.07253
G1 X121.21 Y64.179 E90.22417
G1 X119.005 Y61.974 E90.36968
G1 X116.06 Y63.349 E90.52131
G1 X117.435 Y60.403 E90.67295
G1 X115.229 Y58.198 E90.81845
G1 X112.285 Y59.571 E90.97002
G1 X113.657 Y56.625 E91.12162
